luts/cool_modern.cube
# cool_modern
# Cool modern clean look - teal and orange Hollywood style
# Generated by VHS Upscaler LUT Generator
LUT_3D_SIZE 33
0.000000 0.000000 0.000000
0.000000 0.000000 0.000000
0.000000 0.000000 0.000000
0.000000 0.000000 0.000000
0.011427 0.000000 0.000000
0.038704 0.000000 0.000000
0.068250 0.000000 0.000000
0.100064 0.000000 0.000000
0.134145 0.000000 0.000000
0.170496 0.000000 0.000000
0.209114 0.000000 0.000000
0.250001 0.000000 0.000000
0.293155 0.000000 0.000000
0.338578 0.000000 0.000000
0.386270 0.000000 0.000000
0.436229 0.000000 0.000000
0.471250 0.000000 0.000000
0.505391 0.000000 0.000000
0.539531 0.000000 0.000000
0.573672 0.000000 0.000000
0.607812 0.000000 0.000000
0.641953 0.000000 0.000000
0.676094 0.000000 0.000000
0.710234 0.000000 0.000000
0.744375 0.000000 0.000000
0.778516 0.000000 0.000000
0.812656 0.000000 0.000000
0.846797 0.000000 0.000000
0.880937 0.000000 0.000000
0.915078 0.000000 0.000000
0.949219 0.000000 0.000000
0.983359 0.000000 0.000000
1.000000 0.000000 0.000000
0.000000 0.000000 0.000000
0.000000 0.000000 0.000000
0.000000 0.000000 0.000000
0.000000 0.000000 0.000000
0.026688 0.000000 0.000000
0.057780 0.000000 0.000000
0.091141 0.000000 0.000000
0.126770 0.000000 0.000000
0.164667 0.000000 0.000000
0.204833 0.000000 0.000000
0.247266 0.000000 0.000000
0.291968 0.000000 0.000000
0.334687 0.000000 0.000000
0.368828 0.000000 0.000000
0.402969 0.000000 0.000000
0.437109 0.000000 0.000000
0.471250 0.000000 0.000000
0.505391 0.000000 0.000000
0.539531 0.000000 0.000000
0.573672 0.000000 0.000000
0.607812 0.000000 0.000000
0.641953 0.000000 0.000000
0.676094 0.000000 0.000000
0.710234 0.000000 0.000000
0.744375 0.000000 0.000000
0.778516 0.000000 0.000000
0.812656 0.000000 0.000000
0.846797 0.000000 0.000000
0.880937 0.000000 0.000000
0.915078 0.000000 0.000000
0.949219 0.000000 0.000000
0.983359 0.000000 0.000000
1.000000 0.000000 0.000000
0.000000 0.000000 0.000000
0.000000 0.000000 0.000000
0.000000 0.000000 0.000000
0.009309 0.000000 0.000000
0.041949 0.000000 0.000000
0.076856 0.000000 0.000000
0.114032 0.000000 0.000000
0.153477 0.000000 0.000000
0.195189 0.000000 0.000000
0.232266 0.000000 0.000000
0.266406 0.000000 0.000000
0.300547 0.000000 0.000000
0.334687 0.000000 0.000000
0.368828 0.000000 0.000000
0.402969 0.000000 0.000000
0.437109 0.000000 0.000000
0.471250 0.000000 0.000000
0.505391 0.000000 0.000000
0.539531 0.000000 0.000000
0.573672 0.000000 0.000000
0.607812 0.000000 0.000000
0.641953 0.000000 0.000000
0.676094 0.000000 0.000000
0.710234 0.000000 0.000000
0.744375 0.000000 0.000000
0.778516 0.000000 0.000000
0.812656 0.000000 0.000000
0.846797 0.000000 0.000000
0.880937 0.000000 0.000000
0.915078 0.000000 0.000000
0.949219 0.000000 0.000000
0.983359 0.000000 0.000000
1.000000 0.000000 0.000000
0.000000 0.016851 0.000000
0.000000 0.020504 0.000000
0.000000 0.024157 0.000000
0.020755 0.027810 0.000000
0.057210 0.031463 0.000000
0.095703 0.034969 0.000000
0.129844 0.034969 0.000000
0.163984 0.034969 0.000000
0.198125 0.034969 0.000000
0.232266 0.034969 0.000000
0.266406 0.034969 0.000000
0.300547 0.034969 0.000000
0.334687 0.034969 0.000000
0.368828 0.034969 0.000000
0.402969 0.034969 0.000000
0.437109 0.034969 0.000000
0.471250 0.034969 0.000000
0.505391 0.034969 0.000000
0.539531 0.034969 0.000000
0.573672 0.034969 0.000000
0.607812 0.034969 0.000000
0.641953 0.034969 0.000000
0.676094 0.034969 0.000000
0.710234 0.034969 0.000000
0.744375 0.034969 0.000000
0.778516 0.034969 0.000000
0.812656 0.034969 0.000000
0.846797 0.034969 0.000000
0.880937 0.034969 0.000000
0.915078 0.034969 0.000000
0.949219 0.034969 0.000000
0.983359 0.034969 0.000000
1.000000 0.034969 0.000000
0.000000 0.063854 0.000000
0.000000 0.068725 0.000000
0.000000 0.071625 0.000000
0.027422 0.071625 0.000000
0.061563 0.071625 0.000000
0.095703 0.071625 0.000000
0.129844 0.071625 0.000000
0.163984 0.071625 0.000000
0.198125 0.071625 0.000000
0.232266 0.071625 0.000000
0.266406 0.071625 0.000000
0.300547 0.071625 0.000000
0.334687 0.071625 0.000000
0.368828 0.071625 0.000000
0.402969 0.071625 0.000000
0.437109 0.071625 0.000000
0.471250 0.071625 0.000000
0.505391 0.071625 0.000000
0.539531 0.071625 0.000000
0.573672 0.071625 0.000000
0.607812 0.071625 0.000000
0.641953 0.071625 0.000000
0.676094 0.071625 0.000000
0.710234 0.071625 0.000000
0.744375 0.071625 0.000000
0.778516 0.071625 0.000000
0.812656 0.071625 0.000000
0.846797 0.071625 0.000000
0.880937 0.071625 0.000000
0.915078 0.071625 0.000000
0.949219 0.071625 0.000000
0.983359 0.071625 0.000000
1.000000 0.037069 0.000000
0.000000 0.108281 0.000000
0.000000 0.108281 0.000000
0.000000 0.108281 0.000000
0.027422 0.108281 0.000000
0.061563 0.108281 0.000000
0.095703 0.108281 0.000000
0.129844 0.108281 0.000000
0.163984 0.108281 0.000000
0.198125 0.108281 0.000000
0.232266 0.108281 0.000000
0.266406 0.108281 0.000000
0.300547 0.108281 0.000000
0.334687 0.108281 0.000000
0.368828 0.108281 0.000000
0.402969 0.108281 0.000000
0.437109 0.108281 0.000000
0.471250 0.108281 0.000000
0.505391 0.108281 0.000000
0.539531 0.108281 0.000000
0.573672 0.108281 0.000000
0.607812 0.108281 0.000000
0.641953 0.108281 0.000000
0.676094 0.108281 0.000000
0.710234 0.108281 0.000000
0.744375 0.108281 0.000000
0.778516 0.108281 0.000000
0.812656 0.108281 0.000000
0.846797 0.108281 0.000000
0.880937 0.108281 0.000000
1.000000 0.078861 0.000000
1.000000 0.077864 0.000000
1.000000 0.076868 0.000000
1.000000 0.075871 0.000000
0.000000 0.144938 0.000000
0.000000 0.144938 0.000000
0.000000 0.144938 0.000000
0.027422 0.144938 0.000000
0.061563 0.144938 0.000000
0.095703 0.144938 0.000000
0.129844 0.144938 0.000000
0.163984 0.144938 0.000000
0.198125 0.144938 0.000000
0.232266 0.144938 0.000000
0.266406 0.144938 0.000000
0.300547 0.144938 0.000000
0.334687 0.144938 0.000000
0.368828 0.144938 0.000000
0.402969 0.144938 0.000000
0.437109 0.144938 0.000000
0.471250 0.144938 0.000000
0.505391 0.144938 0.000000
0.539531 0.144938 0.000000
0.573672 0.144938 0.000000
0.607812 0.144938 0.000000
0.641953 0.144938 0.000000
0.676094 0.144938 0.000000
0.710234 0.144938 0.000000
0.744375 0.144938 0.000000
0.850264 0.121649 0.000000
0.888529 0.120653 0.000000
0.926794 0.119656 0.000000
0.965059 0.118659 0.000000
1.000000 0.117663 0.000000
1.000000 0.116666 0.000000
1.000000 0.115670 0.000000
1.000000 0.114673 0.000000
0.000000 0.181594 0.000000
0.000000 0.181594 0.000000
0.000000 0.181594 0.000000
0.027422 0.181594 0.000000
0.061563 0.181594 0.000000
0.095703 0.181594 0.000000
0.129844 0.181594 0.000000
0.163984 0.181594 0.000000
0.198125 0.181594 0.000000
0.232266 0.181594 0.000000
0.266406 0.181594 0.000000
0.300547 0.181594 0.000000
0.334687 0.181594 0.000000
0.368828 0.181594 0.000000
0.402969 0.181594 0.000000
0.437109 0.181594 0.000000
0.471250 0.181594 0.000000
0.505391 0.181594 0.000000
0.539531 0.181594 0.000000
0.573672 0.181594 0.000000
0.607812 0.181594 0.000000
0.641953 0.181594 0.000000
0.732116 0.163441 0.000000
0.770381 0.162444 0.000000
0.808646 0.161448 0.000000
0.846911 0.160451 0.000000
0.885177 0.159455 0.000000
0.923442 0.158458 0.000000
0.961707 0.157462 0.000000
0.999972 0.156465 0.000000
1.000000 0.155468 0.000000
1.000000 0.154472 0.000000
1.000000 0.153475 0.000000
0.000000 0.218250 0.000000
0.000000 0.218250 0.000000
0.000000 0.218250 0.000000
0.027422 0.218250 0.000000
0.061563 0.218250 0.000000
0.095703 0.218250 0.000000
0.129844 0.218250 0.000000
0.163984 0.218250 0.000000
0.198125 0.218250 0.000000
0.232266 0.218250 0.000000
0.266406 0.218250 0.000000
0.300547 0.218250 0.000000
0.334687 0.218250 0.000000
0.368828 0.218250 0.000000
0.402969 0.218250 0.000000
0.437109 0.218250 0.000000
0.471250 0.218250 0.000000
0.505391 0.218250 0.000000
0.539531 0.218250 0.000000
0.613968 0.205233 0.000000
0.652233 0.204236 0.000000
0.690498 0.203240 0.000000
0.728763 0.202243 0.000000
0.767029 0.201247 0.000000
0.805294 0.200250 0.000000
0.843559 0.199253 0.000000
0.881824 0.198257 0.000000
0.920089 0.197260 0.000000
0.958354 0.196264 0.000000
0.996620 0.195267 0.000000
1.000000 0.194271 0.000000
1.000000 0.193274 0.000000
1.000000 0.192278 0.000000
0.000000 0.254906 0.000000
0.000000 0.254906 0.000000
0.000000 0.254906 0.000000
0.027422 0.254906 0.000000
0.061563 0.254906 0.000000
0.095703 0.254906 0.000000
0.129844 0.254906 0.000000
0.163984 0.254906 0.000000
0.198125 0.254906 0.000000
0.232266 0.254906 0.000000
0.266406 0.254906 0.000000
0.300547 0.254906 0.000000
0.334687 0.254906 0.000000
0.368828 0.254906 0.000000
0.402969 0.254906 0.000000
0.457555 0.248021 0.000000
0.495820 0.247025 0.000000
0.534085 0.246028 0.000000
0.572350 0.245032 0.000000
0.610615 0.244035 0.000000
0.648881 0.243038 0.000000
0.687146 0.242042 0.000000
0.725411 0.241045 0.000000
0.763676 0.240049 0.000000
0.801941 0.239052 0.000000
0.840206 0.238056 0.000000
0.878472 0.237059 0.000000
0.916737 0.236063 0.000000
0.955002 0.235066 0.000000
0.993267 0.234069 0.000000
1.000000 0.233073 0.000000
1.000000 0.232076 0.000000
1.000000 0.231080 0.000000
0.000000 0.291563 0.000000
0.000000 0.291563 0.000000
0.000000 0.291563 0.000000
0.027422 0.291563 0.000000
0.061563 0.291563 0.000000
0.095703 0.291563 0.000000
0.129844 0.291563 0.000000
0.163984 0.291563 0.000000
0.198125 0.291563 0.000000
0.232266 0.291563 0.000000
0.266406 0.291563 0.000000
0.300547 0.291563 0.000000
0.339407 0.289813 0.000000
0.377672 0.288817 0.000000
0.415937 0.287820 0.000000
0.454202 0.286823 0.000000
0.492468 0.285827 0.000000
0.530733 0.284830 0.000000
0.568998 0.283834 0.000000
0.607263 0.282837 0.000000
0.645528 0.281841 0.000000
0.683793 0.280844 0.000000
0.722058 0.279848 0.000000
0.760324 0.278851 0.000000
0.798589 0.277854 0.000000
0.836854 0.276858 0.000000
0.875119 0.275861 0.000000
0.913384 0.274865 0.000000
0.951649 0.273868 0.000000
0.989915 0.272872 0.000000
1.000000 0.271875 0.000000
1.000000 0.270878 0.000000
1.000000 0.269882 0.000000
0.000000 0.328219 0.000000
0.000000 0.328219 0.000000
0.000000 0.328219 0.000000
0.027422 0.328219 0.000000
0.061563 0.328219 0.000000
0.095703 0.328219 0.000000
0.129844 0.328219 0.000000
0.163984 0.328219 0.000000
0.198125 0.328219 0.000000
0.221259 0.331605 0.000000
0.259524 0.330608 0.000000
0.297789 0.329612 0.000000
0.336054 0.328615 0.000000
0.374320 0.327619 0.000000
0.412585 0.326622 0.000000
0.450850 0.325626 0.000000
0.489115 0.324629 0.000000
0.527380 0.323632 0.000000
0.565645 0.322636 0.000000
0.603910 0.321639 0.000000
0.642176 0.320643 0.000000
0.680441 0.319646 0.000000
0.718706 0.318650 0.000000
0.756971 0.317653 0.000000
0.795236 0.316657 0.000000
0.833501 0.315660 0.000000
0.871767 0.314663 0.000000
0.910032 0.313667 0.000000
0.948297 0.312670 0.000000
0.986562 0.311674 0.000000
1.000000 0.310677 0.000000
1.000000 0.309681 0.000000
1.000000 0.308684 0.000000
0.000000 0.364875 0.000000
0.000000 0.364875 0.000000
0.000000 0.364875 0.000000
0.027422 0.364875 0.000000
0.061563 0.364875 0.000000
0.064846 0.374393 0.000000
0.103111 0.373397 0.000000
0.141376 0.372400 0.000000
0.179641 0.371404 0.000000
0.217906 0.370407 0.000000
0.256172 0.369411 0.000000
0.294437 0.368414 0.000000
0.332702 0.367418 0.000000
0.370967 0.366421 0.000000
0.409232 0.365424 0.000000
0.447497 0.364428 0.000000
0.485762 0.363431 0.000000
0.524028 0.362435 0.000000
0.562293 0.361438 0.000000
0.600558 0.360442 0.000000
0.638823 0.359445 0.000000
0.677088 0.358448 0.000000
0.715353 0.357452 0.000000
0.753619 0.356455 0.000000
0.791884 0.355459 0.000000
0.830149 0.354462 0.000000
0.868414 0.353466 0.000000
0.906679 0.352469 0.000000
0.944944 0.351473 0.000000
0.983210 0.350476 0.000000
1.000000 0.349479 0.000000
1.000000 0.348483 0.000000
1.000000 0.347486 0.000000
0.000000 0.401531 0.000000
0.000000 0.401531 0.000000
0.000000 0.416185 0.000000
0.000000 0.415189 0.000000
0.023228 0.414192 0.000000
0.061493 0.413196 0.000000
0.099758 0.412199 0.000000
0.138024 0.411203 0.000000
0.176289 0.410206 0.000000
0.214554 0.409209 0.000000
0.252819 0.408213 0.000000
0.291084 0.407216 0.000000
0.329349 0.406220 0.000000
0.367615 0.405223 0.000000
0.405880 0.404227 0.000000
0.444145 0.403230 0.000000
0.482410 0.402233 0.000000
0.520675 0.401237 0.000000
0.558940 0.400240 0.000000
0.597205 0.399244 0.000000
0.635471 0.398247 0.000000
0.673736 0.397251 0.000000
0.712001 0.396254 0.000000
0.750266 0.395258 0.000000
0.788531 0.394261 0.000000
0.826796 0.393264 0.000000
0.865062 0.392268 0.000000
0.903327 0.391271 0.000000
0.941592 0.390275 0.000000
0.979857 0.389278 0.000000
1.000000 0.388282 0.000000
1.000000 0.387285 0.000000
1.000000 0.386288 0.000000
0.000000 0.456981 0.000000
0.000000 0.455984 0.000000
0.000000 0.454988 0.000000
0.000000 0.453991 0.000000
0.019876 0.452994 0.000000
0.058141 0.451998 0.000000
0.096406 0.451001 0.000000
0.134671 0.450005 0.000000
0.172936 0.449008 0.000000
0.211201 0.448012 0.000000
0.249467 0.447015 0.000000
0.287732 0.446018 0.000000
0.325997 0.445022 0.000000
0.364262 0.444025 0.000000
0.402527 0.443029 0.000000
0.440792 0.442032 0.000000
0.479058 0.441036 0.000000
0.517323 0.440039 0.000000
0.555588 0.439043 0.000000
0.593853 0.438046 0.000000
0.632118 0.437049 0.000000
0.670383 0.436053 0.000000
0.708648 0.435056 0.000000
0.746914 0.434060 0.000000
0.785179 0.433063 0.000000
0.823444 0.432067 0.000000
0.861709 0.431070 0.000000
0.899974 0.430073 0.000000
0.938239 0.429077 0.000000
0.976505 0.428080 0.000000
1.000000 0.427084 0.000000
1.000000 0.426087 0.000000
1.000000 0.425091 0.000000
0.000000 0.495783 0.000000
0.000000 0.494786 0.000000
0.000000 0.493790 0.000000
0.000000 0.492793 0.000000
0.016523 0.491797 0.000000
0.054788 0.490800 0.000000
0.093053 0.489803 0.000000
0.131319 0.488807 0.000000
0.169584 0.487810 0.000000
0.207849 0.486814 0.000000
0.246114 0.485817 0.000000
0.284379 0.484821 0.000000
0.322644 0.483824 0.000000
0.360910 0.482828 0.000000
0.399175 0.481831 0.000000
0.437440 0.480834 0.000000
0.475705 0.479838 0.000000
0.513970 0.478841 0.000000
0.552235 0.477845 0.000000
0.590500 0.476848 0.000000
0.628766 0.475852 0.000000
0.667031 0.474855 0.000000
0.705296 0.473858 0.000000
0.743561 0.472862 0.000000
0.781826 0.471865 0.000000
0.820091 0.470869 0.000000
0.858357 0.469872 0.000000
0.896622 0.468876 0.000000
0.934887 0.467879 0.000000
0.973152 0.466883 0.000000
1.000000 0.465886 0.000000
1.000000 0.464889 0.000000
1.000000 0.463893 0.000000
0.000000 0.534585 0.000000
0.000000 0.533588 0.000000
0.000000 0.532592 0.000000
0.000000 0.531595 0.000000
0.013171 0.530599 0.000000
0.051436 0.529602 0.000000
0.089701 0.528606 0.000000
0.127966 0.527609 0.000000
0.166231 0.526612 0.000000
0.204496 0.525616 0.000000
0.242762 0.524619 0.000000
0.281027 0.523623 0.000000
0.319292 0.522626 0.000000
0.357557 0.521630 0.000000
0.395822 0.520633 0.000000
0.434087 0.519637 0.000000
0.472353 0.518640 0.000000
0.510618 0.517643 0.000000
0.548883 0.516647 0.000000
0.587148 0.515650 0.000000
0.625413 0.514654 0.000000
0.663678 0.513657 0.000000
0.701943 0.512661 0.000000
0.740209 0.511664 0.000000
0.778474 0.510667 0.000000
0.816739 0.509671 0.000000
0.855004 0.508674 0.000000
0.893269 0.507678 0.000000
0.931534 0.506681 0.000000
0.969800 0.505685 0.000000
1.000000 0.504688 0.000000
1.000000 0.503692 0.000000
1.000000 0.502695 0.000000
0.000000 0.573387 0.000000
0.000000 0.572391 0.000000
0.000000 0.571394 0.000000
0.000000 0.570398 0.000000
0.009818 0.569401 0.000000
0.048083 0.568404 0.000000
0.086348 0.567408 0.000000
0.124614 0.566411 0.000000
0.162879 0.565415 0.000000
0.201144 0.564418 0.000000
0.239409 0.563422 0.000000
0.277674 0.562425 0.000000
0.315939 0.561428 0.000000
0.354205 0.560432 0.000000
0.392470 0.559435 0.000000
0.430735 0.558439 0.000000
0.469000 0.557442 0.000000
0.507265 0.556446 0.000000
0.545530 0.555449 0.000000
0.583795 0.554453 0.000000
0.622061 0.553456 0.000000
0.660326 0.552459 0.000000
0.698591 0.551463 0.000000
0.736856 0.550466 0.000000
0.775121 0.549470 0.000000
0.813386 0.548473 0.000000
0.851652 0.547477 0.000000
0.889917 0.546480 0.000000
0.928182 0.545483 0.000000
0.966447 0.544487 0.000000
1.000000 0.543490 0.000000
1.000000 0.542494 0.000000
1.000000 0.541497 0.000000
0.000000 0.612189 0.000000
0.000000 0.611193 0.000000
0.000000 0.610196 0.000000
0.000000 0.609200 0.000000
0.006466 0.608203 0.000000
0.044731 0.607207 0.000000
0.082996 0.606210 0.000000
0.121261 0.605213 0.000000
0.159526 0.604217 0.000000
0.197791 0.603220 0.000000
0.236057 0.602224 0.000000
0.274322 0.601227 0.000000
0.312587 0.600231 0.000000
0.350852 0.599234 0.000000
0.389117 0.598237 0.000000
0.427382 0.597241 0.000000
0.465647 0.596244 0.000000
0.503913 0.595248 0.000000
0.542178 0.594251 0.000000
0.580443 0.593255 0.000000
0.618708 0.592258 0.000000
0.656973 0.591262 0.000000
0.695238 0.590265 0.000000
0.733504 0.589268 0.000000
0.771769 0.588272 0.000000
0.810034 0.587275 0.000000
0.848299 0.586279 0.000000
0.886564 0.585282 0.000000
0.924829 0.584286 0.000000
0.963095 0.583289 0.000000
1.000000 0.582292 0.000000
1.000000 0.581296 0.000000
1.000000 0.580299 0.000000
0.000000 0.650992 0.000000
0.000000 0.649995 0.000000
0.000000 0.648998 0.000000
0.000000 0.648002 0.000000
0.003113 0.647005 0.000000
0.041378 0.646009 0.000000
0.079643 0.645012 0.000000
0.117909 0.644016 0.000000
0.156174 0.643019 0.000000
0.194439 0.642023 0.000000
0.232704 0.641026 0.000000
0.270969 0.640029 0.000000
0.309234 0.639033 0.000000
0.347500 0.638036 0.000000
0.385765 0.637040 0.000000
0.424030 0.636043 0.000000
0.462295 0.635047 0.000000
0.500560 0.634050 0.000000
0.538825 0.633053 0.000000
0.577090 0.632057 0.000000
0.615356 0.631060 0.000000
0.653621 0.630064 0.000000
0.691886 0.629067 0.000000
0.730151 0.628071 0.000000
0.768416 0.627074 0.000000
0.806681 0.626078 0.000000
0.844947 0.625081 0.000000
0.883212 0.624084 0.000000
0.921477 0.623088 0.000000
0.959742 0.622091 0.000000
0.998007 0.621095 0.000000
1.000000 0.620098 0.000000
1.000000 0.619102 0.000000
0.000000 0.689794 0.000000
0.000000 0.688797 0.000000
0.000000 0.687801 0.000000
0.000000 0.686804 0.000000
0.000000 0.685807 0.000000
0.038026 0.684811 0.000000
0.076291 0.683814 0.000000
0.114556 0.682818 0.000000
0.152821 0.681821 0.000000
0.191086 0.680825 0.000000
0.229352 0.679828 0.000000
0.267617 0.678832 0.000000
0.305882 0.677835 0.000000
0.344147 0.676838 0.000000
0.382412 0.675842 0.000000
0.420677 0.674845 0.000000
0.458943 0.673849 0.000000
0.497208 0.672852 0.000000
0.535473 0.671856 0.000000
0.573738 0.670859 0.000000
0.612003 0.669862 0.000000
0.650268 0.668866 0.000000
0.688533 0.667869 0.000000
0.726799 0.666873 0.000000
0.765064 0.665876 0.000000
0.803329 0.664880 0.000000
0.841594 0.663883 0.000000
0.879859 0.662887 0.000000
0.918124 0.661890 0.000000
0.956390 0.660893 0.000000
0.994655 0.659897 0.000000
1.000000 0.658900 0.000000
1.000000 0.657904 0.000000
0.000000 0.728596 0.000000
0.000000 0.727599 0.000000
0.000000 0.726603 0.000000
0.000000 0.725606 0.000000
0.000000 0.724610 0.000000
0.034673 0.723613 0.000000
0.072938 0.722617 0.000000
0.111204 0.721620 0.000000
0.149469 0.720623 0.000000
0.187734 0.719627 0.000000
0.225999 0.718630 0.000000
0.264264 0.717634 0.000000
0.302529 0.716637 0.000000
0.340795 0.715641 0.000000
0.379060 0.714644 0.000000
0.417325 0.713647 0.000000
0.455590 0.712651 0.000000
0.493855 0.711654 0.000000
0.532120 0.710658 0.000000
0.570385 0.709661 0.000000
0.608651 0.708665 0.000000
0.646916 0.707668 0.000000
0.685181 0.706672 0.000000
0.723446 0.705675 0.000000
0.761711 0.704678 0.000000
0.799976 0.703682 0.000000
0.838242 0.702685 0.000000
0.876507 0.701689 0.000000
0.914772 0.700692 0.000000
0.953037 0.699696 0.000000
0.991302 0.698699 0.000000
1.000000 0.697703 0.000000
1.000000 0.696706 0.000000
0.000000 0.767398 0.000000
0.000000 0.766402 0.000000
0.000000 0.765405 0.000000
0.000000 0.764408 0.000000
0.000000 0.763412 0.000000
0.031321 0.762415 0.000000
0.069586 0.761419 0.000000
0.107851 0.760422 0.000000
0.146116 0.759426 0.000000
0.184381 0.758429 0.000000
0.222647 0.757432 0.000000
0.260912 0.756436 0.000000
0.299177 0.755439 0.000000
0.337442 0.754443 0.000000
0.375707 0.753446 0.000000
0.413972 0.752450 0.000000
0.452238 0.751453 0.000000
0.490503 0.750457 0.000000
0.528768 0.749460 0.000000
0.567033 0.748463 0.000000
0.605298 0.747467 0.000000
0.643563 0.746470 0.000000
0.681828 0.745474 0.000000
0.720094 0.744477 0.000000
0.758359 0.743481 0.000000
0.796624 0.742484 0.000000
0.834889 0.741487 0.000000
0.873154 0.740491 0.000000
0.911419 0.739494 0.000000
0.949685 0.738498 0.000000
0.987950 0.737501 0.000000
1.000000 0.736505 0.000000
1.000000 0.731437 0.000000
0.000000 0.806200 0.000000
0.000000 0.805204 0.000000
0.000000 0.804207 0.000000
0.000000 0.803211 0.000000
0.000000 0.802214 0.000000
0.027968 0.801218 0.000000
0.066233 0.800221 0.000000
0.104499 0.799224 0.000000
0.142764 0.798228 0.000000
0.181029 0.797231 0.000000
0.219294 0.796235 0.000000
0.257559 0.795238 0.000000
0.295824 0.794242 0.000000
0.334090 0.793245 0.000000
0.372355 0.792248 0.000000
0.410620 0.791252 0.000000
0.448885 0.790255 0.000000
0.487150 0.789259 0.000000
0.525415 0.788262 0.000000
0.563680 0.787266 0.000000
0.601946 0.786269 0.000000
0.640211 0.785273 0.000000
0.678476 0.784276 0.000000
0.716741 0.783279 0.000000
0.755006 0.782283 0.000000
0.793271 0.781286 0.000000
0.831537 0.780290 0.000000
0.869802 0.779293 0.000000
0.880937 0.768094 0.000000
0.915078 0.768094 0.000000
0.949219 0.768094 0.000000
0.983359 0.768094 0.000000
1.000000 0.768094 0.000000
0.000000 0.845002 0.000000
0.000000 0.844006 0.000000
0.000000 0.843009 0.000000
0.000000 0.842013 0.000000
0.000000 0.841016 0.000000
0.024616 0.840020 0.000000
0.062881 0.839023 0.000000
0.101146 0.838027 0.000000
0.139411 0.837030 0.000000
0.177676 0.836033 0.000000
0.215942 0.835037 0.000000
0.254207 0.834040 0.000000
0.292472 0.833044 0.000000
0.330737 0.832047 0.000000
0.369002 0.831051 0.000000
0.407267 0.830054 0.000000
0.445532 0.829058 0.000000
0.483798 0.828061 0.000000
0.522063 0.827064 0.000000
0.560328 0.826068 0.000000
0.598593 0.825071 0.000000
0.636858 0.824075 0.000000
0.675123 0.823078 0.000000
0.713389 0.822082 0.000000
0.751654 0.821085 0.000000
0.778516 0.804750 0.000000
0.812656 0.804750 0.000000
0.846797 0.804750 0.000000
0.880937 0.804750 0.000000
0.915078 0.804750 0.000000
0.949219 0.804750 0.000000
0.983359 0.804750 0.000000
1.000000 0.804750 0.000000
0.000000 0.883805 0.000000
0.000000 0.882808 0.000000
0.000000 0.881812 0.000000
0.000000 0.880815 0.000000
0.000000 0.879818 0.000000
0.021263 0.878822 0.000000
0.059528 0.877825 0.000000
0.097794 0.876829 0.000000
0.136059 0.875832 0.000000
0.174324 0.874836 0.000000
0.212589 0.873839 0.000000
0.250854 0.872842 0.000000
0.289119 0.871846 0.000000
0.327385 0.870849 0.000000
0.365650 0.869853 0.000000
0.403915 0.868856 0.000000
0.442180 0.867860 0.000000
0.480445 0.866863 0.000000
0.518710 0.865867 0.000000
0.556975 0.864870 0.000000
0.595241 0.863873 0.000000
0.633506 0.862877 0.000000
0.676094 0.841406 0.000000
0.710234 0.841406 0.000000
0.744375 0.841406 0.000000
0.778516 0.841406 0.000000
0.812656 0.841406 0.000000
0.846797 0.841406 0.000000
0.880937 0.841406 0.000000
0.915078 0.841406 0.000000
0.949219 0.841406 0.000000
0.983359 0.841406 0.000000
1.000000 0.841406 0.000000
0.000000 0.922607 0.000000
0.000000 0.921610 0.000000
0.000000 0.920614 0.000000
0.000000 0.919617 0.000000
0.000000 0.918621 0.000000
0.017911 0.917624 0.000000
0.056176 0.916627 0.000000
0.094441 0.915631 0.000000
0.132706 0.914634 0.000000
0.170971 0.913638 0.000000
0.209237 0.912641 0.000000
0.247502 0.911645 0.000000
0.285767 0.910648 0.000000
0.324032 0.909652 0.000000
0.362297 0.908655 0.000000
0.400562 0.907658 0.000000
0.438828 0.906662 0.000000
0.477093 0.905665 0.000000
0.539531 0.878062 0.000000
0.573672 0.878062 0.000000
0.607812 0.878062 0.000000
0.641953 0.878062 0.000000
0.676094 0.878062 0.000000
0.710234 0.878062 0.000000
0.744375 0.878062 0.000000
0.778516 0.878062 0.000000
