luts/cool_modern.cube
# cool_modern
# Cool modern clean look - teal and orange Hollywood style
# Generated by VHS Upscaler LUT Generator
LUT_3D_SIZE 5
0.000000 0.000000 0.000000
0.134145 0.000000 0.000000
0.471250 0.000000 0.000000
0.744375 0.000000 0.000000
1.000000 0.000000 0.000000
0.000000 0.218250 0.000000
0.198125 0.218250 0.000000
0.471250 0.218250 0.000000
0.805294 0.200250 0.000000
1.000000 0.192278 0.000000
0.000000 0.534585 0.000000
0.166231 0.526612 0.000000
0.472353 0.518640 0.000000
0.778474 0.510667 0.000000
1.000000 0.502695 0.000000
0.000000 0.845002 0.000000
0.139411 0.837030 0.000000
0.445532 0.829058 0.000000
0.751654 0.821085 0.000000
1.000000 0.804750 0.000000
0.000000 1.000000 0.000000
0.198125 1.000000 0.000000
0.471250 1.000000 0.000000
0.744375 1.000000 0.000000
1.000000 1.000000 0.000000
0.000000 0.000000 0.108273
0.158795 0.000000 0.190788
0.471250 0.000000 0.235500
0.744375 0.000000 0.235500
1.000000 0.000000 0.235500
0.000000 0.218250 0.235500
0.198125 0.218250 0.235500
0.496465 0.205515 0.225353
0.802586 0.197543 0.217380
1.000000 0.189570 0.209408
0.000000 0.531878 0.214478
0.163524 0.523905 0.206505
0.469645 0.515932 0.198533
0.775766 0.507960 0.190560
1.000000 0.499987 0.182588
0.000000 0.842295 0.187658
0.136704 0.834322 0.179685
0.442825 0.826350 0.171713
0.744375 0.804750 0.235500
1.000000 0.804750 0.235500
0.000000 1.000000 0.235500
0.198125 1.000000 0.235500
0.471250 1.000000 0.235500
0.744375 1.000000 0.235500
1.000000 1.000000 0.235500
0.000000 0.000000 0.347590
0.183445 0.000000 0.512621
0.471250 0.000000 0.546000
0.744375 0.000000 0.546000
1.000000 0.000000 0.546000
0.000000 0.218250 0.546000
0.198125 0.218250 0.546000
0.493757 0.202808 0.579720
0.799879 0.194835 0.571748
1.000000 0.186863 0.563775
0.000000 0.529170 0.568845
0.160816 0.521197 0.560872
0.466938 0.513225 0.552900
0.773059 0.505252 0.544928
1.000000 0.497280 0.536955
0.000000 0.839587 0.542025
0.133996 0.831615 0.534053
0.440118 0.823642 0.526080
0.744375 0.804750 0.546000
1.000000 0.804750 0.546000
0.000000 1.000000 0.546000
0.198125 1.000000 0.546000
0.471250 1.000000 0.546000
0.744375 1.000000 0.546000
1.000000 1.000000 0.546000
0.000000 0.000000 0.642954
0.198125 0.000000 0.856500
0.471250 0.000000 0.856500
0.744375 0.000000 0.856500
1.000000 0.000000 0.856500
0.000000 0.218250 0.856500
0.198125 0.218250 0.856500
0.491050 0.200100 0.934087
0.797171 0.192128 0.926115
1.000000 0.184155 0.918143
0.000000 0.526462 0.923212
0.158109 0.518490 0.915240
0.464230 0.510517 0.907268
0.770351 0.502545 0.899295
1.000000 0.494572 0.891323
0.000000 0.836880 0.896393
0.131289 0.828907 0.888420
0.437410 0.820935 0.880448
0.744375 0.804750 0.856500
1.000000 0.804750 0.856500
0.000000 1.000000 0.856500
0.198125 1.000000 0.856500
0.471250 1.000000 0.856500
0.744375 1.000000 0.856500
1.000000 1.000000 0.856500
0.000000 0.000000 0.994362
0.198125 0.000000 1.000000
0.471250 0.000000 1.000000
0.744375 0.000000 1.000000
1.000000 0.000000 1.000000
0.000000 0.218250 1.000000
0.182221 0.205365 1.000000
0.488343 0.197392 1.000000
0.794464 0.189420 1.000000
1.000000 0.181448 1.000000
0.000000 0.523755 1.000000
0.155401 0.515782 1.000000
0.461523 0.507810 1.000000
0.767644 0.499837 1.000000
1.000000 0.491865 1.000000
0.000000 0.834172 1.000000
0.128581 0.826200 1.000000
0.471250 0.804750 1.000000
0.744375 0.804750 1.000000
1.000000 0.804750 1.000000
0.000000 1.000000 1.000000
0.198125 1.000000 1.000000
0.471250 1.000000 1.000000
0.744375 1.000000 1.000000
1.000000 1.000000 1.000000
