luts/cool_modern.cube
# cool_modern
# Cool modern clean look - teal and orange Hollywood style
# Generated by VHS Upscaler LUT Generator
LUT_3D_SIZE 9
0.000000 0.000000 0.000000
0.011427 0.000000 0.000000
0.134145 0.000000 0.000000
0.293155 0.000000 0.000000
0.471250 0.000000 0.000000
0.607812 0.000000 0.000000
0.744375 0.000000 0.000000
0.880937 0.000000 0.000000
1.000000 0.000000 0.000000
0.000000 0.063854 0.000000
0.061563 0.071625 0.000000
0.198125 0.071625 0.000000
0.334687 0.071625 0.000000
0.471250 0.071625 0.000000
0.607812 0.071625 0.000000
0.744375 0.071625 0.000000
0.880937 0.071625 0.000000
1.000000 0.037069 0.000000
0.000000 0.218250 0.000000
0.061563 0.218250 0.000000
0.198125 0.218250 0.000000
0.334687 0.218250 0.000000
0.471250 0.218250 0.000000
0.652233 0.204236 0.000000
0.805294 0.200250 0.000000
0.958354 0.196264 0.000000
1.000000 0.192278 0.000000
0.000000 0.364875 0.000000
0.061563 0.364875 0.000000
0.179641 0.371404 0.000000
0.332702 0.367418 0.000000
0.485762 0.363431 0.000000
0.638823 0.359445 0.000000
0.791884 0.355459 0.000000
0.944944 0.351473 0.000000
1.000000 0.347486 0.000000
0.000000 0.534585 0.000000
0.013171 0.530599 0.000000
0.166231 0.526612 0.000000
0.319292 0.522626 0.000000
0.472353 0.518640 0.000000
0.625413 0.514654 0.000000
0.778474 0.510667 0.000000
0.931534 0.506681 0.000000
1.000000 0.502695 0.000000
0.000000 0.689794 0.000000
0.000000 0.685807 0.000000
0.152821 0.681821 0.000000
0.305882 0.677835 0.000000
0.458943 0.673849 0.000000
0.612003 0.669862 0.000000
0.765064 0.665876 0.000000
0.918124 0.661890 0.000000
1.000000 0.657904 0.000000
0.000000 0.845002 0.000000
0.000000 0.841016 0.000000
0.139411 0.837030 0.000000
0.292472 0.833044 0.000000
0.445532 0.829058 0.000000
0.598593 0.825071 0.000000
0.751654 0.821085 0.000000
0.880937 0.804750 0.000000
1.000000 0.804750 0.000000
0.000000 1.000000 0.000000
0.000000 0.996225 0.000000
0.126001 0.992239 0.000000
0.334687 0.951375 0.000000
0.471250 0.951375 0.000000
0.607812 0.951375 0.000000
0.744375 0.951375 0.000000
0.880937 0.951375 0.000000
1.000000 0.951375 0.000000
0.000000 1.000000 0.000000
0.061563 1.000000 0.000000
0.198125 1.000000 0.000000
0.334687 1.000000 0.000000
0.471250 1.000000 0.000000
0.607812 1.000000 0.000000
0.744375 1.000000 0.000000
0.880937 1.000000 0.000000
1.000000 1.000000 0.000000
0.000000 0.000000 0.009631
0.017589 0.000000 0.030260
0.146470 0.000000 0.050888
0.311643 0.000000 0.071517
0.471250 0.000000 0.080250
0.607812 0.000000 0.080250
0.744375 0.000000 0.080250
0.880937 0.000000 0.080250
1.000000 0.000000 0.080250
0.000000 0.070470 0.079027
0.061563 0.071625 0.080250
0.198125 0.071625 0.080250
0.334687 0.071625 0.080250
0.471250 0.071625 0.080250
0.607812 0.071625 0.080250
0.744375 0.071625 0.080250
0.880937 0.071625 0.080250
1.000000 0.035715 0.045634
0.000000 0.218250 0.080250
0.061563 0.218250 0.080250
0.198125 0.218250 0.080250
0.334687 0.218250 0.080250
0.471250 0.218250 0.080250
0.650879 0.202883 0.044183
0.803940 0.198896 0.040196
0.957001 0.194910 0.036210
1.000000 0.190924 0.032224
0.000000 0.364875 0.080250
0.025227 0.374036 0.046718
0.178288 0.370050 0.042731
0.331348 0.366064 0.038745
0.484409 0.362077 0.034759
0.637469 0.358091 0.030773
0.790530 0.354105 0.026786
0.943591 0.350119 0.022800
1.000000 0.346133 0.018814
0.000000 0.533231 0.037294
0.011817 0.529245 0.033308
0.164878 0.525259 0.029321
0.317938 0.521272 0.025335
0.470999 0.517286 0.021349
0.624059 0.513300 0.017363
0.777120 0.509314 0.013376
0.930181 0.505327 0.009390
1.000000 0.501341 0.005404
0.000000 0.688440 0.023884
0.000000 0.684454 0.019898
0.151468 0.680468 0.015911
0.304528 0.676481 0.011925
0.457589 0.672495 0.007939
0.610649 0.668509 0.003953
0.763710 0.664523 0.000000
0.916771 0.660536 0.000000
1.000000 0.656550 0.000000
0.000000 0.843649 0.010474
0.000000 0.839662 0.006488
0.138058 0.835676 0.002501
0.291118 0.831690 0.000000
0.444179 0.827704 0.000000
0.597239 0.823717 0.000000
0.744375 0.804750 0.080250
0.880937 0.804750 0.080250
1.000000 0.804750 0.080250
0.000000 0.998858 0.000000
0.000000 0.994871 0.000000
0.124648 0.990885 0.000000
0.334687 0.951375 0.080250
0.471250 0.951375 0.080250
0.607812 0.951375 0.080250
0.744375 0.951375 0.080250
0.880937 0.951375 0.080250
1.000000 0.951375 0.080250
0.000000 1.000000 0.080250
0.061563 1.000000 0.080250
0.198125 1.000000 0.080250
0.334687 1.000000 0.080250
0.471250 1.000000 0.080250
0.607812 1.000000 0.080250
0.744375 1.000000 0.080250
0.880937 1.000000 0.080250
1.000000 1.000000 0.080250
0.000000 0.000000 0.108273
0.023752 0.000000 0.149530
0.158795 0.000000 0.190788
0.330130 0.000000 0.232046
0.471250 0.000000 0.235500
0.607812 0.000000 0.235500
0.744375 0.000000 0.235500
0.880937 0.000000 0.235500
1.000000 0.000000 0.235500
0.000000 0.071625 0.235500
0.061563 0.071625 0.235500
0.198125 0.071625 0.235500
0.334687 0.071625 0.235500
0.471250 0.071625 0.235500
0.607812 0.071625 0.235500
0.744375 0.071625 0.235500
0.880937 0.071625 0.235500
1.000000 0.034361 0.222818
0.000000 0.218250 0.235500
0.061563 0.218250 0.235500
0.198125 0.218250 0.235500
0.334687 0.218250 0.235500
0.496465 0.205515 0.225353
0.649526 0.201529 0.221366
0.802586 0.197543 0.217380
0.955647 0.193556 0.213394
1.000000 0.189570 0.209408
0.000000 0.364875 0.235500
0.023873 0.372683 0.223901
0.176934 0.368696 0.219915
0.329994 0.364710 0.215929
0.483055 0.360724 0.211943
0.636116 0.356737 0.207956
0.789176 0.352751 0.203970
0.942237 0.348765 0.199984
1.000000 0.344779 0.195998
0.000000 0.531878 0.214478
0.010463 0.527891 0.210491
0.163524 0.523905 0.206505
0.316584 0.519919 0.202519
0.469645 0.515932 0.198533
0.622706 0.511946 0.194546
0.775766 0.507960 0.190560
0.928827 0.503974 0.186574
1.000000 0.499987 0.182588
0.000000 0.687086 0.201068
0.000000 0.683100 0.197081
0.150114 0.679114 0.193095
0.303174 0.675127 0.189109
0.456235 0.671141 0.185123
0.609296 0.667155 0.181136
0.762356 0.663169 0.177150
0.915417 0.659183 0.173164
1.000000 0.655196 0.169178
0.000000 0.842295 0.187658
0.000000 0.838309 0.183671
0.136704 0.834322 0.179685
0.289764 0.830336 0.175699
0.442825 0.826350 0.171713
0.595886 0.822364 0.167726
0.744375 0.804750 0.235500
0.880937 0.804750 0.235500
1.000000 0.804750 0.235500
0.000000 0.997504 0.174248
0.000000 0.993518 0.170261
0.123294 0.989531 0.166275
0.334687 0.951375 0.235500
0.471250 0.951375 0.235500
0.607812 0.951375 0.235500
0.744375 0.951375 0.235500
0.880937 0.951375 0.235500
1.000000 0.951375 0.235500
0.000000 1.000000 0.235500
0.061563 1.000000 0.235500
0.198125 1.000000 0.235500
0.334687 1.000000 0.235500
0.471250 1.000000 0.235500
0.607812 1.000000 0.235500
0.744375 1.000000 0.235500
0.880937 1.000000 0.235500
1.000000 1.000000 0.235500
0.000000 0.000000 0.220926
0.029914 0.000000 0.282812
0.171120 0.000000 0.344699
0.334687 0.000000 0.390750
0.471250 0.000000 0.390750
0.607812 0.000000 0.390750
0.744375 0.000000 0.390750
0.880937 0.000000 0.390750
1.000000 0.000000 0.390750
0.000000 0.071625 0.390750
0.061563 0.071625 0.390750
0.198125 0.071625 0.390750
0.334687 0.071625 0.390750
0.471250 0.071625 0.390750
0.607812 0.071625 0.390750
0.744375 0.071625 0.390750
0.967703 0.036994 0.403988
1.000000 0.033008 0.400001
0.000000 0.218250 0.390750
0.061563 0.218250 0.390750
0.198125 0.218250 0.390750
0.334687 0.218250 0.390750
0.495111 0.204161 0.402536
0.648172 0.200175 0.398550
0.801232 0.196189 0.394564
0.954293 0.192203 0.390578
1.000000 0.188216 0.386591
0.000000 0.364875 0.390750
0.022519 0.371329 0.401085
0.175580 0.367343 0.397099
0.328641 0.363356 0.393113
0.481701 0.359370 0.389126
0.634762 0.355384 0.385140
0.787822 0.351398 0.381154
0.940883 0.347411 0.377168
1.000000 0.343425 0.373181
0.000000 0.530524 0.391661
0.009109 0.526537 0.387675
0.162170 0.522551 0.383689
0.315231 0.518565 0.379703
0.468291 0.514579 0.375716
0.621352 0.510593 0.371730
0.774412 0.506606 0.367744
0.927473 0.502620 0.363758
1.000000 0.498634 0.359771
0.000000 0.685732 0.378251
0.000000 0.681746 0.374265
0.148760 0.677760 0.370279
0.301821 0.673774 0.366293
0.454881 0.669787 0.362306
0.607942 0.665801 0.358320
0.761002 0.661815 0.354334
0.914063 0.657829 0.350348
1.000000 0.653842 0.346361
0.000000 0.840941 0.364841
0.000000 0.836955 0.360855
0.135350 0.832969 0.356869
0.288411 0.828982 0.352883
0.441471 0.824996 0.348896
0.594532 0.821010 0.344910
0.744375 0.804750 0.390750
0.880937 0.804750 0.390750
1.000000 0.804750 0.390750
0.000000 0.996150 0.351431
0.000000 0.992164 0.347445
0.198125 0.951375 0.390750
0.334687 0.951375 0.390750
0.471250 0.951375 0.390750
0.607812 0.951375 0.390750
0.744375 0.951375 0.390750
0.880937 0.951375 0.390750
1.000000 0.951375 0.390750
0.000000 1.000000 0.390750
0.061563 1.000000 0.390750
0.198125 1.000000 0.390750
0.334687 1.000000 0.390750
0.471250 1.000000 0.390750
0.607812 1.000000 0.390750
0.744375 1.000000 0.390750
0.880937 1.000000 0.390750
1.000000 1.000000 0.390750
0.000000 0.000000 0.347590
0.036077 0.000000 0.430106
0.183445 0.000000 0.512621
0.334687 0.000000 0.546000
0.471250 0.000000 0.546000
0.607812 0.000000 0.546000
0.744375 0.000000 0.546000
0.880937 0.000000 0.546000
1.000000 0.000000 0.546000
0.000000 0.071625 0.546000
0.061563 0.071625 0.546000
0.198125 0.071625 0.546000
0.334687 0.071625 0.546000
0.471250 0.071625 0.546000
0.607812 0.071625 0.546000
0.744375 0.071625 0.546000
0.966349 0.035640 0.581171
1.000000 0.031654 0.577185
0.000000 0.218250 0.546000
0.061563 0.218250 0.546000
0.198125 0.218250 0.546000
0.334687 0.218250 0.546000
0.493757 0.202808 0.579720
0.646818 0.198821 0.575734
0.799879 0.194835 0.571748
0.952939 0.190849 0.567761
1.000000 0.186863 0.563775
0.000000 0.373961 0.582255
0.021166 0.369975 0.578269
0.174226 0.365989 0.574283
0.327287 0.362003 0.570296
0.480347 0.358016 0.566310
0.633408 0.354030 0.562324
0.786469 0.350044 0.558338
0.939529 0.346058 0.554351
1.000000 0.342071 0.550365
0.000000 0.529170 0.568845
0.007756 0.525184 0.564859
0.160816 0.521197 0.560872
0.313877 0.517211 0.556886
0.466938 0.513225 0.552900
0.619998 0.509239 0.548914
0.773059 0.505252 0.544928
0.926119 0.501266 0.540941
1.000000 0.497280 0.536955
0.000000 0.684379 0.555435
0.000000 0.680392 0.551449
0.147406 0.676406 0.547463
0.300467 0.672420 0.543476
0.453528 0.668434 0.539490
0.606588 0.664447 0.535504
0.759649 0.660461 0.531518
0.912709 0.656475 0.527531
1.000000 0.652489 0.523545
0.000000 0.839587 0.542025
0.000000 0.835601 0.538039
0.133996 0.831615 0.534053
0.287057 0.827629 0.530066
0.440118 0.823642 0.526080
0.607812 0.804750 0.546000
0.744375 0.804750 0.546000
0.880937 0.804750 0.546000
1.000000 0.804750 0.546000
0.000000 0.994796 0.528615
0.000000 0.990810 0.524629
0.198125 0.951375 0.546000
0.334687 0.951375 0.546000
0.471250 0.951375 0.546000
0.607812 0.951375 0.546000
0.744375 0.951375 0.546000
0.880937 0.951375 0.546000
1.000000 0.951375 0.546000
0.000000 1.000000 0.546000
0.061563 1.000000 0.546000
0.198125 1.000000 0.546000
0.334687 1.000000 0.546000
0.471250 1.000000 0.546000
0.607812 1.000000 0.546000
0.744375 1.000000 0.546000
0.880937 1.000000 0.546000
1.000000 1.000000 0.546000
0.000000 0.000000 0.488266
0.042239 0.000000 0.591411
0.195769 0.000000 0.694555
0.334687 0.000000 0.701250
0.471250 0.000000 0.701250
0.607812 0.000000 0.701250
0.744375 0.000000 0.701250
0.880937 0.000000 0.701250
1.000000 0.000000 0.701250
0.000000 0.071625 0.701250
0.061563 0.071625 0.701250
0.198125 0.071625 0.701250
0.334687 0.071625 0.701250
0.471250 0.071625 0.701250
0.607812 0.071625 0.701250
0.744375 0.071625 0.701250
0.964996 0.034286 0.758355
1.000000 0.030300 0.754369
0.000000 0.218250 0.701250
0.061563 0.218250 0.701250
0.198125 0.218250 0.701250
0.339343 0.205440 0.760890
0.492404 0.201454 0.756904
0.645464 0.197468 0.752918
0.798525 0.193481 0.748931
0.951586 0.189495 0.744945
1.000000 0.185509 0.740959
0.000000 0.372607 0.759439
0.019812 0.368621 0.755453
0.172873 0.364635 0.751466
0.325933 0.360649 0.747480
0.478994 0.356662 0.743494
0.632054 0.352676 0.739507
0.785115 0.348690 0.735521
0.938176 0.344704 0.731535
1.000000 0.340718 0.727549
0.000000 0.527816 0.746029
0.006402 0.523830 0.742042
0.159463 0.519844 0.738056
0.312523 0.515857 0.734070
0.465584 0.511871 0.730084
0.618644 0.507885 0.726098
0.771705 0.503899 0.722111
0.924766 0.499912 0.718125
1.000000 0.495926 0.714139
0.000000 0.683025 0.732619
0.000000 0.679039 0.728633
0.146053 0.675052 0.724646
0.299113 0.671066 0.720660
0.452174 0.667080 0.716674
0.605234 0.663094 0.712688
0.758295 0.659107 0.708701
0.911356 0.655121 0.704715
1.000000 0.658125 0.701250
0.000000 0.838234 0.719209
0.000000 0.834247 0.715223
0.132642 0.830261 0.711236
0.285703 0.826275 0.707250
0.438764 0.822289 0.703264
0.607812 0.804750 0.701250
0.744375 0.804750 0.701250
0.880937 0.804750 0.701250
1.000000 0.804750 0.701250
0.000000 0.993443 0.705799
0.000000 0.989456 0.701813
0.198125 0.951375 0.701250
0.334687 0.951375 0.701250
0.471250 0.951375 0.701250
0.607812 0.951375 0.701250
0.744375 0.951375 0.701250
0.880937 0.951375 0.701250
1.000000 0.951375 0.701250
0.000000 1.000000 0.701250
0.061563 1.000000 0.701250
0.198125 1.000000 0.701250
0.334687 1.000000 0.701250
0.471250 1.000000 0.701250
0.607812 1.000000 0.701250
0.744375 1.000000 0.701250
0.880937 1.000000 0.701250
1.000000 1.000000 0.701250
0.000000 0.000000 0.642954
0.048401 0.000000 0.766727
0.198125 0.000000 0.856500
0.334687 0.000000 0.856500
0.471250 0.000000 0.856500
0.607812 0.000000 0.856500
0.744375 0.000000 0.856500
0.880937 0.000000 0.856500
1.000000 0.000000 0.856500
0.000000 0.071625 0.856500
0.061563 0.071625 0.856500
0.198125 0.071625 0.856500
0.334687 0.071625 0.856500
0.471250 0.071625 0.856500
0.607812 0.071625 0.856500
0.810581 0.036919 0.939525
0.963642 0.032933 0.935539
1.000000 0.028946 0.931553
0.000000 0.218250 0.856500
0.061563 0.218250 0.856500
0.198125 0.218250 0.856500
0.337989 0.204086 0.938074
0.491050 0.200100 0.934087
0.644111 0.196114 0.930101
0.797171 0.192128 0.926115
0.950232 0.188141 0.922129
1.000000 0.184155 0.918143
0.000000 0.371254 0.936623
0.018458 0.367267 0.932636
0.171519 0.363281 0.928650
0.324579 0.359295 0.924664
0.477640 0.355309 0.920678
0.630701 0.351322 0.916691
0.783761 0.347336 0.912705
0.936822 0.343350 0.908719
1.000000 0.339364 0.904732
0.000000 0.526462 0.923212
0.005048 0.522476 0.919226
0.158109 0.518490 0.915240
0.311169 0.514504 0.911254
0.464230 0.510517 0.907268
0.617291 0.506531 0.903281
0.770351 0.502545 0.899295
0.923412 0.498559 0.895309
1.000000 0.494572 0.891323
0.000000 0.681671 0.909803
0.000000 0.677685 0.905816
0.144699 0.673699 0.901830
0.297759 0.669712 0.897844
0.450820 0.665726 0.893857
0.603881 0.661740 0.889871
0.756941 0.657754 0.885885
0.910002 0.653767 0.881899
1.000000 0.658125 0.856500
0.000000 0.836880 0.896393
0.000000 0.832894 0.892406
0.131289 0.828907 0.888420
0.284349 0.824921 0.884434
0.437410 0.820935 0.880448
0.607812 0.804750 0.856500
0.744375 0.804750 0.856500
0.880937 0.804750 0.856500
1.000000 0.804750 0.856500
0.000000 0.992089 0.882983
0.061563 0.951375 0.856500
0.198125 0.951375 0.856500
0.334687 0.951375 0.856500
0.471250 0.951375 0.856500
0.607812 0.951375 0.856500
0.744375 0.951375 0.856500
0.880937 0.951375 0.856500
1.000000 0.951375 0.856500
0.000000 1.000000 0.856500
0.061563 1.000000 0.856500
0.198125 1.000000 0.856500
0.334687 1.000000 0.856500
0.471250 1.000000 0.856500
0.607812 1.000000 0.856500
0.744375 1.000000 0.856500
0.880937 1.000000 0.856500
1.000000 1.000000 0.856500
0.000000 0.000000 0.811652
0.054564 0.000000 0.956054
0.198125 0.000000 1.000000
0.334687 0.000000 1.000000
0.471250 0.000000 1.000000
0.607812 0.000000 1.000000
0.744375 0.000000 1.000000
0.880937 0.000000 1.000000
1.000000 0.000000 1.000000
0.000000 0.071625 1.000000
0.061563 0.071625 1.000000
0.198125 0.071625 1.000000
0.334687 0.071625 1.000000
0.471250 0.071625 1.000000
0.607812 0.071625 1.000000
0.809227 0.035565 1.000000
0.962288 0.031579 1.000000
1.000000 0.027593 1.000000
0.000000 0.218250 1.000000
0.061563 0.218250 1.000000
0.198125 0.218250 1.000000
0.336636 0.202733 1.000000
0.489696 0.198746 1.000000
0.642757 0.194760 1.000000
0.795817 0.190774 1.000000
0.948878 0.186788 1.000000
1.000000 0.182801 1.000000
0.000000 0.369900 1.000000
0.017104 0.365914 1.000000
0.170165 0.361928 1.000000
0.323226 0.357941 1.000000
0.476286 0.353955 1.000000
0.629347 0.349969 1.000000
0.782407 0.345983 1.000000
0.935468 0.341996 1.000000
1.000000 0.338010 1.000000
0.000000 0.525109 1.000000
0.003694 0.521122 1.000000
0.156755 0.517136 1.000000
0.309816 0.513150 1.000000
0.462876 0.509164 1.000000
0.615937 0.505177 1.000000
0.768997 0.501191 1.000000
0.922058 0.497205 1.000000
1.000000 0.493219 1.000000
0.000000 0.680317 1.000000
0.000000 0.676331 1.000000
0.143345 0.672345 1.000000
0.296406 0.668359 1.000000
0.449466 0.664372 1.000000
0.602527 0.660386 1.000000
0.755587 0.656400 1.000000
0.908648 0.652414 1.000000
1.000000 0.658125 1.000000
0.000000 0.835526 1.000000
0.000000 0.831540 1.000000
0.129935 0.827554 1.000000
0.282996 0.823568 1.000000
0.471250 0.804750 1.000000
0.607812 0.804750 1.000000
0.744375 0.804750 1.000000
0.880937 0.804750 1.000000
1.000000 0.804750 1.000000
0.000000 0.990735 1.000000
0.061563 0.951375 1.000000
0.198125 0.951375 1.000000
0.334687 0.951375 1.000000
0.471250 0.951375 1.000000
0.607812 0.951375 1.000000
0.744375 0.951375 1.000000
0.880937 0.951375 1.000000
1.000000 0.951375 1.000000
0.000000 1.000000 1.000000
0.061563 1.000000 1.000000
0.198125 1.000000 1.000000
0.334687 1.000000 1.000000
0.471250 1.000000 1.000000
0.607812 1.000000 1.000000
0.744375 1.000000 1.000000
0.880937 1.000000 1.000000
1.000000 1.000000 1.000000
0.000000 0.000000 0.994362
0.060726 0.000000 1.000000
0.198125 0.000000 1.000000
0.334687 0.000000 1.000000
0.471250 0.000000 1.000000
0.607812 0.000000 1.000000
0.744375 0.000000 1.000000
0.880937 0.000000 1.000000
1.000000 0.000000 1.000000
0.000000 0.071625 1.000000
0.061563 0.071625 1.000000
0.198125 0.071625 1.000000
0.334687 0.071625 1.000000
0.471250 0.071625 1.000000
0.607812 0.071625 1.000000
0.807874 0.034211 1.000000
0.960934 0.030225 1.000000
1.000000 0.026239 1.000000
0.000000 0.218250 1.000000
0.061563 0.218250 1.000000
0.182221 0.205365 1.000000
0.335282 0.201379 1.000000
0.488343 0.197392 1.000000
0.641403 0.193406 1.000000
0.794464 0.189420 1.000000
0.947524 0.185434 1.000000
1.000000 0.181448 1.000000
0.000000 0.368546 1.000000
0.015751 0.364560 1.000000
0.168811 0.360574 1.000000
0.321872 0.356588 1.000000
0.474932 0.352601 1.000000
0.627993 0.348615 1.000000
0.781054 0.344629 1.000000
0.934114 0.340643 1.000000
1.000000 0.336656 1.000000
0.000000 0.523755 1.000000
0.002341 0.519769 1.000000
0.155401 0.515782 1.000000
0.308462 0.511796 1.000000
0.461523 0.507810 1.000000
0.614583 0.503824 1.000000
0.767644 0.499837 1.000000
0.920704 0.495851 1.000000
1.000000 0.491865 1.000000
0.000000 0.678964 1.000000
0.000000 0.674978 1.000000
0.141991 0.670991 1.000000
0.295052 0.667005 1.000000
0.448113 0.663019 1.000000
0.601173 0.659032 1.000000
0.754234 0.655046 1.000000
0.880937 0.658125 1.000000
1.000000 0.658125 1.000000
0.000000 0.834172 1.000000
0.000000 0.830186 1.000000
0.128581 0.826200 1.000000
0.281642 0.822214 1.000000
0.471250 0.804750 1.000000
0.607812 0.804750 1.000000
0.744375 0.804750 1.000000
0.880937 0.804750 1.000000
1.000000 0.804750 1.000000
0.000000 0.989381 1.000000
0.061563 0.951375 1.000000
0.198125 0.951375 1.000000
0.334687 0.951375 1.000000
0.471250 0.951375 1.000000
0.607812 0.951375 1.000000
0.744375 0.951375 1.000000
0.880937 0.951375 1.000000
1.000000 0.951375 1.000000
0.000000 1.000000 1.000000
0.061563 1.000000 1.000000
0.198125 1.000000 1.000000
0.334687 1.000000 1.000000
0.471250 1.000000 1.000000
0.607812 1.000000 1.000000
0.744375 1.000000 1.000000
0.880937 1.000000 1.000000
1.000000 1.000000 1.000000
