luts/vhs_restore.cube
# vhs_restore
# VHS color restoration - corrects blue shift and saturation loss
# Generated by VHS Upscaler LUT Generator
LUT_3D_SIZE 5
0.000000 0.000000 0.000000
0.294822 0.000000 0.000000
0.569559 0.000000 0.000000
0.837192 0.000000 0.000000
1.000000 0.000000 0.000000
0.000000 0.278330 0.000000
0.275275 0.272577 0.000000
0.550012 0.267215 0.000000
0.817646 0.261992 0.000000
1.000000 0.256858 0.000000
0.000000 0.537698 0.000000
0.257061 0.531945 0.000000
0.531797 0.526583 0.000000
0.799431 0.521361 0.000000
1.000000 0.516226 0.000000
0.000000 0.790361 0.000000
0.239317 0.784607 0.000000
0.514053 0.779246 0.000000
0.781687 0.774023 0.000000
1.000000 0.768888 0.000000
0.000000 1.000000 0.000000
0.221872 1.000000 0.000000
0.496608 1.000000 0.000000
0.764242 1.000000 0.000000
1.000000 1.000000 0.000000
0.000000 0.000000 0.295556
0.292849 0.000000 0.289805
0.567585 0.000000 0.284447
0.835219 0.000000 0.279227
1.000000 0.000000 0.274096
0.000000 0.276376 0.276212
0.273302 0.270623 0.270462
0.548039 0.265261 0.257382
0.815672 0.260038 0.252315
1.000000 0.254904 0.247332
0.000000 0.535744 0.250666
0.255087 0.529991 0.245084
0.529824 0.524630 0.239882
0.797457 0.519407 0.234814
1.000000 0.514272 0.229832
0.000000 0.788407 0.233618
0.237343 0.782654 0.228036
0.512080 0.777292 0.222834
0.779713 0.772069 0.217766
1.000000 0.766934 0.212783
0.000000 1.000000 0.216857
0.219898 1.000000 0.211275
0.494635 1.000000 0.206073
0.762269 1.000000 0.201005
1.000000 1.000000 0.196023
0.000000 0.000000 0.570976
0.291010 0.000000 0.565226
0.565747 0.000000 0.559867
0.833380 0.000000 0.554648
1.000000 0.000000 0.549516
0.000000 0.274555 0.551632
0.271463 0.268802 0.545882
0.546200 0.263441 0.524780
0.813834 0.258218 0.519713
1.000000 0.253083 0.514730
0.000000 0.533924 0.518065
0.253249 0.528170 0.512482
0.527985 0.522809 0.507280
0.795619 0.517586 0.502212
1.000000 0.512451 0.497230
0.000000 0.786586 0.501016
0.235505 0.780833 0.495434
0.510241 0.775471 0.490232
0.777875 0.770248 0.485164
1.000000 0.765114 0.480182
0.000000 1.000000 0.484256
0.218060 1.000000 0.478673
0.492796 1.000000 0.473471
0.760430 1.000000 0.468403
1.000000 1.000000 0.463421
0.000000 0.000000 0.839275
0.289219 0.000000 0.833525
0.563955 0.000000 0.828167
0.831589 0.000000 0.822947
1.000000 0.000000 0.817815
0.000000 0.272782 0.819931
0.269672 0.267028 0.790467
0.544409 0.261667 0.785265
0.812042 0.256444 0.780197
1.000000 0.251309 0.775215
0.000000 0.532150 0.778549
0.251457 0.526397 0.772967
0.526194 0.521035 0.767765
0.793827 0.515812 0.762697
1.000000 0.510677 0.757715
0.000000 0.784812 0.761501
0.233713 0.779059 0.755919
0.508450 0.773698 0.750716
0.776083 0.768475 0.745649
1.000000 0.763340 0.740666
0.000000 1.000000 0.744740
0.216268 1.000000 0.739158
0.491005 1.000000 0.733956
0.758638 1.000000 0.728888
1.000000 1.000000 0.723906
0.000000 0.000000 1.000000
0.287458 0.000000 1.000000
0.562194 0.000000 1.000000
0.829828 0.000000 1.000000
1.000000 0.000000 1.000000
0.000000 0.271038 1.000000
0.267911 0.265284 1.000000
0.542648 0.259923 1.000000
0.810281 0.254700 1.000000
1.000000 0.249565 1.000000
0.000000 0.530406 1.000000
0.249696 0.524653 1.000000
0.524433 0.519291 1.000000
0.792066 0.514068 1.000000
1.000000 0.508934 1.000000
0.000000 0.783069 1.000000
0.231952 0.777315 1.000000
0.506689 0.771954 1.000000
0.774322 0.766731 1.000000
1.000000 0.761596 0.996761
0.000000 1.000000 1.000000
0.214507 1.000000 0.995252
0.489244 1.000000 0.990050
0.756877 1.000000 0.984982
1.000000 1.000000 0.980000
