luts/vhs_restore.cube
# vhs_restore
# VHS color restoration - corrects blue shift and saturation loss
# Generated by VHS Upscaler LUT Generator
LUT_3D_SIZE 9
0.000000 0.000000 0.000000
0.152609 0.000000 0.000000
0.294822 0.000000 0.000000
0.433358 0.000000 0.000000
0.569559 0.000000 0.000000
0.704049 0.000000 0.000000
0.837192 0.000000 0.000000
0.969225 0.000000 0.000000
1.000000 0.000000 0.000000
0.000000 0.144073 0.000000
0.142492 0.141095 0.000000
0.284704 0.138319 0.000000
0.423240 0.135616 0.000000
0.559441 0.132958 0.000000
0.693931 0.130333 0.000000
0.827074 0.127735 0.000000
0.959107 0.125158 0.000000
1.000000 0.122600 0.000000
0.000000 0.278330 0.000000
0.133063 0.275352 0.000000
0.275275 0.272577 0.000000
0.413811 0.269873 0.000000
0.550012 0.267215 0.000000
0.684503 0.264591 0.000000
0.817646 0.261992 0.000000
0.949678 0.259416 0.000000
1.000000 0.256858 0.000000
0.000000 0.409116 0.000000
0.123878 0.406138 0.000000
0.266091 0.403363 0.000000
0.404626 0.400659 0.000000
0.540827 0.398002 0.000000
0.675318 0.395377 0.000000
0.808461 0.392779 0.000000
0.940494 0.390202 0.000000
1.000000 0.387644 0.000000
0.000000 0.537698 0.000000
0.114848 0.534720 0.000000
0.257061 0.531945 0.000000
0.395596 0.529241 0.000000
0.531797 0.526583 0.000000
0.666288 0.523959 0.000000
0.799431 0.521361 0.000000
0.931463 0.518784 0.000000
1.000000 0.516226 0.000000
0.000000 0.664666 0.000000
0.105931 0.661687 0.000000
0.248144 0.658912 0.000000
0.386680 0.656209 0.000000
0.522881 0.653551 0.000000
0.657371 0.650926 0.000000
0.790514 0.648328 0.000000
0.922547 0.645751 0.000000
1.000000 0.643193 0.000000
0.000000 0.790361 0.000000
0.097104 0.787383 0.000000
0.239317 0.784607 0.000000
0.377852 0.781904 0.000000
0.514053 0.779246 0.000000
0.648544 0.776621 0.000000
0.781687 0.774023 0.000000
0.913720 0.771446 0.000000
1.000000 0.768888 0.000000
0.000000 0.915008 0.000000
0.088350 0.912030 0.000000
0.230563 0.909255 0.000000
0.369099 0.906551 0.000000
0.505299 0.903893 0.000000
0.639790 0.901268 0.000000
0.772933 0.898670 0.000000
0.904966 0.896094 0.000000
1.000000 0.893535 0.000000
0.000000 1.000000 0.000000
0.079659 1.000000 0.000000
0.221872 1.000000 0.000000
0.360407 1.000000 0.000000
0.496608 1.000000 0.000000
0.631099 1.000000 0.000000
0.764242 1.000000 0.000000
0.896275 1.000000 0.000000
1.000000 1.000000 0.000000
0.000000 0.000000 0.152989
0.151588 0.000000 0.150013
0.293801 0.000000 0.147239
0.432336 0.000000 0.144537
0.568537 0.000000 0.141881
0.703028 0.000000 0.139258
0.836171 0.000000 0.136661
0.968204 0.000000 0.134086
1.000000 0.000000 0.131529
0.000000 0.143061 0.142976
0.141470 0.140083 0.140000
0.283683 0.137308 0.137226
0.422218 0.134604 0.134524
0.558419 0.131946 0.131868
0.692910 0.129322 0.129245
0.826053 0.126724 0.126648
0.958086 0.124147 0.124073
1.000000 0.121589 0.117977
0.000000 0.277319 0.133646
0.132041 0.274341 0.130669
0.274254 0.271565 0.127896
0.412790 0.268862 0.125194
0.548991 0.266204 0.118968
0.683481 0.263579 0.116422
0.816624 0.260981 0.113901
0.948657 0.258404 0.111401
1.000000 0.255846 0.108918
0.000000 0.408105 0.124556
0.122857 0.405127 0.118039
0.265069 0.402352 0.115346
0.403605 0.399648 0.112723
0.539806 0.396990 0.110144
0.674296 0.394366 0.107597
0.807439 0.391767 0.105076
0.939472 0.389191 0.102576
1.000000 0.386632 0.100094
0.000000 0.536687 0.112252
0.113827 0.533709 0.109363
0.256039 0.530934 0.106670
0.394575 0.528230 0.104047
0.530776 0.525572 0.101468
0.665266 0.522947 0.098921
0.798409 0.520349 0.096400
0.930442 0.517773 0.093900
1.000000 0.515214 0.091418
0.000000 0.663654 0.103685
0.104910 0.660676 0.100796
0.247122 0.657901 0.098103
0.385658 0.655197 0.095480
0.521859 0.652539 0.092901
0.656350 0.649915 0.090354
0.789493 0.647316 0.087833
0.921525 0.644740 0.085333
1.000000 0.642182 0.082851
0.000000 0.789349 0.095204
0.096083 0.786371 0.092315
0.238295 0.783596 0.089622
0.376831 0.780892 0.086999
0.513032 0.778235 0.084420
0.647522 0.775610 0.081873
0.780665 0.773012 0.079352
0.912698 0.770435 0.076852
1.000000 0.767877 0.074370
0.000000 0.913997 0.086794
0.087329 0.911018 0.083904
0.229541 0.908243 0.081211
0.368077 0.905540 0.078588
0.504278 0.902882 0.076009
0.638769 0.900257 0.073463
0.771912 0.897659 0.070941
0.903944 0.895082 0.068441
1.000000 0.892524 0.065959
0.000000 1.000000 0.078444
0.078638 1.000000 0.075554
0.220850 1.000000 0.072861
0.359386 1.000000 0.070238
0.495587 1.000000 0.067659
0.630077 1.000000 0.065112
0.763220 1.000000 0.062591
0.895253 1.000000 0.060091
1.000000 1.000000 0.057609
0.000000 0.000000 0.295556
0.150636 0.000000 0.292579
0.292849 0.000000 0.289805
0.431385 0.000000 0.287104
0.567585 0.000000 0.284447
0.702076 0.000000 0.281824
0.835219 0.000000 0.279227
0.967252 0.000000 0.276652
1.000000 0.000000 0.274096
0.000000 0.142119 0.285543
0.140518 0.139141 0.282566
0.282731 0.136365 0.279793
0.421267 0.133662 0.277091
0.557467 0.131004 0.274434
0.691958 0.128379 0.271811
0.825101 0.125781 0.269215
0.957134 0.123204 0.258873
1.000000 0.120646 0.256391
0.000000 0.276376 0.276212
0.131090 0.273398 0.273236
0.273302 0.270623 0.270462
0.411838 0.267919 0.267760
0.548039 0.265261 0.257382
0.682529 0.262637 0.254836
0.815672 0.260038 0.252315
0.947705 0.257462 0.249814
1.000000 0.254904 0.247332
0.000000 0.407163 0.259342
0.121905 0.404184 0.256453
0.264117 0.401409 0.253760
0.402653 0.398706 0.251137
0.538854 0.396048 0.248558
0.673344 0.393423 0.246011
0.806487 0.390825 0.243490
0.938520 0.388248 0.240990
1.000000 0.385690 0.238508
0.000000 0.535744 0.250666
0.112875 0.532766 0.247777
0.255087 0.529991 0.245084
0.393623 0.527288 0.242461
0.529824 0.524630 0.239882
0.664314 0.522005 0.237335
0.797457 0.519407 0.234814
0.929490 0.516830 0.232314
1.000000 0.514272 0.229832
0.000000 0.662712 0.242099
0.103958 0.659734 0.239210
0.246171 0.656958 0.236517
0.384706 0.654255 0.233894
0.520907 0.651597 0.231315
0.655398 0.648972 0.228768
0.788541 0.646374 0.226247
0.920574 0.643797 0.223747
1.000000 0.641239 0.221265
0.000000 0.788407 0.233618
0.095131 0.785429 0.230729
0.237343 0.782654 0.228036
0.375879 0.779950 0.225413
0.512080 0.777292 0.222834
0.646570 0.774667 0.220287
0.779713 0.772069 0.217766
0.911746 0.769493 0.215266
1.000000 0.766934 0.212783
0.000000 0.913054 0.225208
0.086377 0.910076 0.222318
0.228590 0.907301 0.219625
0.367125 0.904597 0.217002
0.503326 0.901939 0.214423
0.637817 0.899315 0.211876
0.770960 0.896716 0.209355
0.902993 0.894140 0.206855
1.000000 0.891581 0.204373
0.000000 1.000000 0.216857
0.077686 1.000000 0.213968
0.219898 1.000000 0.211275
0.358434 1.000000 0.208652
0.494635 1.000000 0.206073
0.629125 1.000000 0.203526
0.762269 1.000000 0.201005
0.894301 1.000000 0.198505
1.000000 1.000000 0.196023
0.000000 0.000000 0.434436
0.149709 0.000000 0.431460
0.291922 0.000000 0.428686
0.430457 0.000000 0.425984
0.566658 0.000000 0.423328
0.701149 0.000000 0.420705
0.834292 0.000000 0.418108
0.966325 0.000000 0.415533
1.000000 0.000000 0.412976
0.000000 0.141201 0.424423
0.139591 0.138223 0.421447
0.281804 0.135447 0.418673
0.420339 0.132744 0.415971
0.556540 0.130086 0.413315
0.691031 0.127461 0.410692
0.824174 0.124863 0.408095
0.956207 0.122286 0.393709
1.000000 0.119728 0.391227
0.000000 0.275458 0.415092
0.130162 0.272480 0.412116
0.272375 0.269705 0.409342
0.410911 0.267001 0.394797
0.547112 0.264343 0.392218
0.681602 0.261719 0.389671
0.814745 0.259120 0.387150
0.946778 0.256544 0.384650
1.000000 0.253986 0.382168
0.000000 0.406244 0.394178
0.120978 0.403266 0.391288
0.263190 0.400491 0.388595
0.401726 0.397787 0.385972
0.537927 0.395129 0.383393
0.672417 0.392505 0.380846
0.805560 0.389907 0.378325
0.937593 0.387330 0.375825
1.000000 0.384772 0.373343
0.000000 0.534826 0.385502
0.111948 0.531848 0.382612
0.254160 0.529073 0.379919
0.392696 0.526369 0.377296
0.528897 0.523711 0.374717
0.663387 0.521087 0.372170
0.796530 0.518489 0.369649
0.928563 0.515912 0.367149
1.000000 0.513354 0.364667
0.000000 0.661794 0.376935
0.103031 0.658815 0.374045
0.245243 0.656040 0.371352
0.383779 0.653337 0.368729
0.519980 0.650679 0.366150
0.654471 0.648054 0.363603
0.787614 0.645456 0.361082
0.919646 0.642879 0.358582
1.000000 0.640321 0.356100
0.000000 0.787489 0.368454
0.094204 0.784511 0.365564
0.236416 0.781735 0.362871
0.374952 0.779032 0.360248
0.511153 0.776374 0.357669
0.645643 0.773749 0.355122
0.778786 0.771151 0.352601
0.910819 0.768574 0.350101
1.000000 0.766016 0.347619
0.000000 0.912136 0.360043
0.085450 0.909158 0.357154
0.227662 0.906382 0.354461
0.366198 0.903679 0.351837
0.502399 0.901021 0.349258
0.636889 0.898396 0.346712
0.770033 0.895798 0.344191
0.902065 0.893222 0.341691
1.000000 0.890663 0.339208
0.000000 1.000000 0.351693
0.076759 1.000000 0.348803
0.218971 1.000000 0.346110
0.357507 1.000000 0.343487
0.493708 1.000000 0.340908
0.628198 1.000000 0.338361
0.761341 1.000000 0.335840
0.893374 1.000000 0.333340
1.000000 1.000000 0.330858
0.000000 0.000000 0.570976
0.148797 0.000000 0.567999
0.291010 0.000000 0.565226
0.429546 0.000000 0.562524
0.565747 0.000000 0.559867
0.700237 0.000000 0.557244
0.833380 0.000000 0.554648
0.965413 0.000000 0.552072
1.000000 0.000000 0.549516
0.000000 0.140298 0.560963
0.138679 0.137320 0.557986
0.280892 0.134545 0.555213
0.419428 0.131841 0.552511
0.555629 0.129183 0.549854
0.690119 0.126559 0.547231
0.823262 0.123960 0.544635
0.955295 0.121384 0.526271
1.000000 0.118825 0.523789
0.000000 0.274555 0.551632
0.129251 0.271577 0.548656
0.271463 0.268802 0.545882
0.409999 0.266098 0.527359
0.546200 0.263441 0.524780
0.680691 0.260816 0.522234
0.813834 0.258218 0.519713
0.945866 0.255641 0.517213
1.000000 0.253083 0.514730
0.000000 0.405342 0.526741
0.120066 0.402364 0.523851
0.262279 0.399588 0.521158
0.400814 0.396885 0.518535
0.537015 0.394227 0.515956
0.671506 0.391602 0.513409
0.804649 0.389004 0.510888
0.936682 0.386427 0.508388
1.000000 0.383869 0.505906
0.000000 0.533924 0.518065
0.111036 0.530946 0.515175
0.253249 0.528170 0.512482
0.391784 0.525467 0.509859
0.527985 0.522809 0.507280
0.662476 0.520184 0.504733
0.795619 0.517586 0.502212
0.927651 0.515009 0.499712
1.000000 0.512451 0.497230
0.000000 0.660891 0.509498
0.102119 0.657913 0.506608
0.244332 0.655138 0.503915
0.382868 0.652434 0.501292
0.519068 0.649776 0.498713
0.653559 0.647151 0.496166
0.786702 0.644553 0.493645
0.918735 0.641977 0.491145
1.000000 0.639418 0.488663
0.000000 0.786586 0.501016
0.093292 0.783608 0.498127
0.235505 0.780833 0.495434
0.374040 0.778129 0.492811
0.510241 0.775471 0.490232
0.644732 0.772847 0.487685
0.777875 0.770248 0.485164
0.909907 0.767672 0.482664
1.000000 0.765114 0.480182
0.000000 0.911233 0.492606
0.084538 0.908255 0.489716
0.226751 0.905480 0.487023
0.365287 0.902776 0.484400
0.501487 0.900118 0.481821
0.635978 0.897494 0.479275
0.769121 0.894896 0.476754
0.901154 0.892319 0.474253
1.000000 0.889761 0.471771
0.000000 1.000000 0.484256
0.075847 1.000000 0.481366
0.218060 1.000000 0.478673
0.356595 1.000000 0.476050
0.492796 1.000000 0.473471
0.627287 1.000000 0.470924
0.760430 1.000000 0.468403
0.892463 1.000000 0.465903
1.000000 1.000000 0.463421
0.000000 0.000000 0.705801
0.147897 0.000000 0.702824
0.290110 0.000000 0.700051
0.428646 0.000000 0.697349
0.564846 0.000000 0.694692
0.699337 0.000000 0.692069
0.832480 0.000000 0.689473
0.964513 0.000000 0.686898
1.000000 0.000000 0.684341
0.000000 0.139407 0.695788
0.137779 0.136429 0.692811
0.279992 0.133653 0.690038
0.418528 0.130950 0.687336
0.554729 0.128292 0.684680
0.689219 0.125667 0.682057
0.822362 0.123069 0.659670
0.954395 0.120492 0.657170
1.000000 0.117934 0.654687
0.000000 0.273664 0.686457
0.128351 0.270686 0.683481
0.270563 0.267911 0.680707
0.409099 0.265207 0.658258
0.545300 0.262549 0.655679
0.679790 0.259925 0.653132
0.812933 0.257326 0.650611
0.944966 0.254750 0.648111
1.000000 0.252192 0.645629
0.000000 0.404450 0.657639
0.119166 0.401472 0.654749
0.261378 0.398697 0.652056
0.399914 0.395993 0.649433
0.536115 0.393336 0.646854
0.670606 0.390711 0.644307
0.803749 0.388113 0.641786
0.935781 0.385536 0.639286
1.000000 0.382978 0.636804
0.000000 0.533032 0.648963
0.110136 0.530054 0.646073
0.252348 0.527279 0.643380
0.390884 0.524575 0.640757
0.527085 0.521917 0.638178
0.661575 0.519293 0.635631
0.794718 0.516695 0.633110
0.926751 0.514118 0.630610
1.000000 0.511560 0.628128
0.000000 0.660000 0.640396
0.101219 0.657021 0.637506
0.243432 0.654246 0.634813
0.381967 0.651543 0.632190
0.518168 0.648885 0.629611
0.652659 0.646260 0.627064
0.785802 0.643662 0.624543
0.917835 0.641085 0.622043
1.000000 0.638527 0.619561
0.000000 0.785695 0.631915
0.092392 0.782717 0.629025
0.234604 0.779941 0.626332
0.373140 0.777238 0.623709
0.509341 0.774580 0.621130
0.643831 0.771955 0.618583
0.776974 0.769357 0.616062
0.909007 0.766780 0.613562
1.000000 0.764222 0.611080
0.000000 0.910342 0.623504
0.083638 0.907364 0.620614
0.225851 0.904589 0.617922
0.364386 0.901885 0.615298
0.500587 0.899227 0.612719
0.635078 0.896602 0.610173
0.768221 0.894004 0.607652
0.900254 0.891428 0.605152
1.000000 0.888869 0.602669
0.000000 1.000000 0.615154
0.074947 1.000000 0.612264
0.217159 1.000000 0.609571
0.355695 1.000000 0.606948
0.491896 1.000000 0.604369
0.626387 1.000000 0.601822
0.759530 1.000000 0.599301
0.891562 1.000000 0.596801
1.000000 1.000000 0.594319
0.000000 0.000000 0.839275
0.147006 0.000000 0.836299
0.289219 0.000000 0.833525
0.427755 0.000000 0.830823
0.563955 0.000000 0.828167
0.698446 0.000000 0.825544
0.831589 0.000000 0.822947
0.963622 0.000000 0.820372
1.000000 0.000000 0.817815
0.000000 0.138524 0.829262
0.136888 0.135546 0.826286
0.279101 0.132771 0.823512
0.417637 0.130067 0.820810
0.553837 0.127409 0.818154
0.688328 0.124785 0.815531
0.821471 0.122187 0.789256
0.953504 0.119610 0.786756
1.000000 0.117052 0.784274
0.000000 0.272782 0.819931
0.127460 0.269804 0.816955
0.269672 0.267028 0.790467
0.408208 0.264325 0.787844
0.544409 0.261667 0.785265
0.678899 0.259042 0.782719
0.812042 0.256444 0.780197
0.944075 0.253867 0.777697
1.000000 0.251309 0.775215
0.000000 0.403568 0.787225
0.118275 0.400590 0.784336
0.260487 0.397815 0.781643
0.399023 0.395111 0.779020
0.535224 0.392453 0.776441
0.669714 0.389829 0.773894
0.802857 0.387230 0.771373
0.934890 0.384654 0.768873
1.000000 0.382095 0.766390
0.000000 0.532150 0.778549
0.109245 0.529172 0.775660
0.251457 0.526397 0.772967
0.389993 0.523693 0.770344
0.526194 0.521035 0.767765
0.660684 0.518411 0.765218
0.793827 0.515812 0.762697
0.925860 0.513236 0.760197
1.000000 0.510677 0.757715
0.000000 0.659117 0.769982
0.100328 0.656139 0.767093
0.242541 0.653364 0.764400
0.381076 0.650660 0.761777
0.517277 0.648002 0.759198
0.651768 0.645378 0.756651
0.784911 0.642779 0.754130
0.916944 0.640203 0.751630
1.000000 0.637645 0.749148
0.000000 0.784812 0.761501
0.091501 0.781834 0.758612
0.233713 0.779059 0.755919
0.372249 0.776356 0.753295
0.508450 0.773698 0.750716
0.642940 0.771073 0.748170
0.776083 0.768475 0.745649
0.908116 0.765898 0.743149
1.000000 0.763340 0.740666
0.000000 0.909460 0.753091
0.082747 0.906481 0.750201
0.224960 0.903706 0.747508
0.363495 0.901003 0.744885
0.499696 0.898345 0.742306
0.634187 0.895720 0.739759
0.767330 0.893122 0.737238
0.899362 0.890545 0.734738
1.000000 0.887987 0.732256
0.000000 1.000000 0.744740
0.074056 1.000000 0.741851
0.216268 1.000000 0.739158
0.354804 1.000000 0.736535
0.491005 1.000000 0.733956
0.625495 1.000000 0.731409
0.758638 1.000000 0.728888
0.890671 1.000000 0.726388
1.000000 1.000000 0.723906
0.000000 0.000000 0.971636
0.146122 0.000000 0.968660
0.288335 0.000000 0.965886
0.426871 0.000000 0.963184
0.563072 0.000000 0.960528
0.697562 0.000000 0.957905
0.830705 0.000000 0.955308
0.962738 0.000000 0.952733
1.000000 0.000000 0.950176
0.000000 0.137649 0.961623
0.136005 0.134671 0.958647
0.278217 0.131896 0.955873
0.416753 0.129192 0.953171
0.552954 0.126534 0.950515
0.687444 0.123910 0.947892
0.820587 0.121312 0.917762
0.952620 0.118735 0.915262
1.000000 0.116177 0.912780
0.000000 0.271907 0.952293
0.126576 0.268929 0.949316
0.268788 0.266153 0.918974
0.407324 0.263450 0.916350
0.543525 0.260792 0.913771
0.678016 0.258167 0.911225
0.811159 0.255569 0.908704
0.943191 0.252992 0.906204
1.000000 0.250434 0.903721
0.000000 0.402693 0.915731
0.117391 0.399715 0.912842
0.259604 0.396940 0.910149
0.398139 0.394236 0.907526
0.534340 0.391578 0.904947
0.668831 0.388954 0.902400
0.801974 0.386355 0.899879
0.934007 0.383779 0.897379
1.000000 0.381220 0.894897
0.000000 0.531275 0.907055
0.108361 0.528297 0.904166
0.250574 0.525522 0.901473
0.389109 0.522818 0.898850
0.525310 0.520160 0.896271
0.659801 0.517535 0.893724
0.792944 0.514937 0.891203
0.924976 0.512361 0.888703
1.000000 0.509802 0.886221
0.000000 0.658242 0.898488
0.099444 0.655264 0.895599
0.241657 0.652489 0.892906
0.380193 0.649785 0.890283
0.516393 0.647127 0.887704
0.650884 0.644503 0.885157
0.784027 0.641904 0.882636
0.916060 0.639328 0.880136
1.000000 0.636770 0.877654
0.000000 0.783937 0.890007
0.090617 0.780959 0.887118
0.232830 0.778184 0.884425
0.371365 0.775480 0.881802
0.507566 0.772823 0.879223
0.642057 0.770198 0.876676
0.775200 0.767600 0.874155
0.907232 0.765023 0.871655
1.000000 0.762465 0.869173
0.000000 0.908585 0.881597
0.081863 0.905606 0.878707
0.224076 0.902831 0.876014
0.362612 0.900128 0.873391
0.498812 0.897470 0.870812
0.633303 0.894845 0.868265
0.766446 0.892247 0.865744
0.898479 0.889670 0.863244
1.000000 0.887112 0.860762
0.000000 1.000000 0.873247
0.073172 1.000000 0.870357
0.215385 1.000000 0.867664
0.353920 1.000000 0.865041
0.490121 1.000000 0.862462
0.624612 1.000000 0.859915
0.757755 1.000000 0.857394
0.889788 1.000000 0.854894
1.000000 1.000000 0.852412
0.000000 0.000000 1.000000
0.145245 0.000000 1.000000
0.287458 0.000000 1.000000
0.425993 0.000000 1.000000
0.562194 0.000000 1.000000
0.696685 0.000000 1.000000
0.829828 0.000000 1.000000
0.961861 0.000000 1.000000
1.000000 0.000000 1.000000
0.000000 0.136781 1.000000
0.135127 0.133802 1.000000
0.277340 0.131027 1.000000
0.415875 0.128324 1.000000
0.552076 0.125666 1.000000
0.686567 0.123041 1.000000
0.819710 0.120443 1.000000
0.951743 0.117866 1.000000
1.000000 0.115308 1.000000
0.000000 0.271038 1.000000
0.125698 0.268060 1.000000
0.267911 0.265284 1.000000
0.406447 0.262581 1.000000
0.542648 0.259923 1.000000
0.677138 0.257298 1.000000
0.810281 0.254700 1.000000
0.942314 0.252124 1.000000
1.000000 0.249565 1.000000
0.000000 0.401824 1.000000
0.116514 0.398846 1.000000
0.258726 0.396071 1.000000
0.397262 0.393367 1.000000
0.533463 0.390709 1.000000
0.667953 0.388085 1.000000
0.801096 0.385486 1.000000
0.933129 0.382910 1.000000
1.000000 0.380352 1.000000
0.000000 0.530406 1.000000
0.107484 0.527428 1.000000
0.249696 0.524653 1.000000
0.388232 0.521949 1.000000
0.524433 0.519291 1.000000
0.658923 0.516667 1.000000
0.792066 0.514068 1.000000
0.924099 0.511492 1.000000
1.000000 0.508934 1.000000
0.000000 0.657373 1.000000
0.098567 0.654395 1.000000
0.240779 0.651620 1.000000
0.379315 0.648916 1.000000
0.515516 0.646259 1.000000
0.650007 0.643634 1.000000
0.783150 0.641036 1.000000
0.915182 0.638459 1.000000
1.000000 0.635901 1.000000
0.000000 0.783069 1.000000
0.089740 0.780090 1.000000
0.231952 0.777315 1.000000
0.370488 0.774612 1.000000
0.506689 0.771954 1.000000
0.641179 0.769329 1.000000
0.774322 0.766731 1.000000
0.906355 0.764154 0.999243
1.000000 0.761596 0.996761
0.000000 0.907716 1.000000
0.080986 0.904738 1.000000
0.223198 0.901962 1.000000
0.361734 0.899259 1.000000
0.497935 0.896601 0.998400
0.632426 0.893976 0.995854
0.765569 0.891378 0.993333
0.897601 0.888801 0.990833
1.000000 0.886243 0.988350
0.000000 1.000000 1.000000
0.072295 1.000000 0.997945
0.214507 1.000000 0.995252
0.353043 1.000000 0.992629
0.489244 1.000000 0.990050
0.623734 1.000000 0.987503
0.756877 1.000000 0.984982
0.888910 1.000000 0.982482
1.000000 1.000000 0.980000
