luts/vhs_restore.cube
# vhs_restore
# VHS color restoration - corrects blue shift and saturation loss
# Generated by VHS Upscaler LUT Generator
LUT_3D_SIZE 33
0.000000 0.000000 0.000000
0.040891 0.000000 0.000000
0.078996 0.000000 0.000000
0.116115 0.000000 0.000000
0.152609 0.000000 0.000000
0.188645 0.000000 0.000000
0.224320 0.000000 0.000000
0.259697 0.000000 0.000000
0.294822 0.000000 0.000000
0.329727 0.000000 0.000000
0.364439 0.000000 0.000000
0.398977 0.000000 0.000000
0.433358 0.000000 0.000000
0.467596 0.000000 0.000000
0.501702 0.000000 0.000000
0.535687 0.000000 0.000000
0.569559 0.000000 0.000000
0.603324 0.000000 0.000000
0.636991 0.000000 0.000000
0.670564 0.000000 0.000000
0.704049 0.000000 0.000000
0.737450 0.000000 0.000000
0.770772 0.000000 0.000000
0.804018 0.000000 0.000000
0.837192 0.000000 0.000000
0.870297 0.000000 0.000000
0.903336 0.000000 0.000000
0.936311 0.000000 0.000000
0.969225 0.000000 0.000000
1.000000 0.000000 0.000000
1.000000 0.000000 0.000000
1.000000 0.000000 0.000000
1.000000 0.000000 0.000000
0.000000 0.038603 0.000000
0.038180 0.037805 0.000000
0.076285 0.037062 0.000000
0.113404 0.036337 0.000000
0.149898 0.035625 0.000000
0.185934 0.034922 0.000000
0.221609 0.034226 0.000000
0.256986 0.033535 0.000000
0.292111 0.032850 0.000000
0.327016 0.032169 0.000000
0.361728 0.031491 0.000000
0.396266 0.030817 0.000000
0.430647 0.030146 0.000000
0.464885 0.029478 0.000000
0.498991 0.028813 0.000000
0.532976 0.028149 0.000000
0.566848 0.027488 0.000000
0.600613 0.026829 0.000000
0.634280 0.026172 0.000000
0.667853 0.025517 0.000000
0.701338 0.024864 0.000000
0.734739 0.024212 0.000000
0.768061 0.023562 0.000000
0.801307 0.022913 0.000000
0.834481 0.022266 0.000000
0.867586 0.021620 0.000000
0.900625 0.020975 0.000000
0.933600 0.020331 0.000000
0.966514 0.019689 0.000000
0.999369 0.019048 0.000000
1.000000 0.018408 0.000000
1.000000 0.017769 0.000000
1.000000 0.017131 0.000000
0.000000 0.074577 0.000000
0.035653 0.073779 0.000000
0.073758 0.073035 0.000000
0.110878 0.072311 0.000000
0.147372 0.071599 0.000000
0.183408 0.070895 0.000000
0.219083 0.070199 0.000000
0.254460 0.069509 0.000000
0.289585 0.068823 0.000000
0.324490 0.068142 0.000000
0.359201 0.067465 0.000000
0.393739 0.066791 0.000000
0.428120 0.066120 0.000000
0.462358 0.065452 0.000000
0.496465 0.064786 0.000000
0.530450 0.064123 0.000000
0.564321 0.063462 0.000000
0.598087 0.062803 0.000000
0.631754 0.062146 0.000000
0.665327 0.061491 0.000000
0.698812 0.060837 0.000000
0.732213 0.060185 0.000000
0.765535 0.059535 0.000000
0.798781 0.058886 0.000000
0.831955 0.058239 0.000000
0.865060 0.057593 0.000000
0.898098 0.056948 0.000000
0.931073 0.056305 0.000000
0.963988 0.055662 0.000000
0.996843 0.055021 0.000000
1.000000 0.054381 0.000000
1.000000 0.053742 0.000000
1.000000 0.053104 0.000000
0.000000 0.109620 0.000000
0.033192 0.108822 0.000000
0.071297 0.108078 0.000000
0.108417 0.107354 0.000000
0.144911 0.106642 0.000000
0.180947 0.105939 0.000000
0.216622 0.105242 0.000000
0.251999 0.104552 0.000000
0.287124 0.103867 0.000000
0.322029 0.103185 0.000000
0.356740 0.102508 0.000000
0.391278 0.101834 0.000000
0.425659 0.101163 0.000000
0.459897 0.100495 0.000000
0.494004 0.099829 0.000000
0.527989 0.099166 0.000000
0.561860 0.098505 0.000000
0.595626 0.097846 0.000000
0.629293 0.097189 0.000000
0.662866 0.096534 0.000000
0.696351 0.095881 0.000000
0.729752 0.095229 0.000000
0.763074 0.094578 0.000000
0.796320 0.093930 0.000000
0.829494 0.093282 0.000000
0.862599 0.092636 0.000000
0.895637 0.091991 0.000000
0.928612 0.091348 0.000000
0.961527 0.090706 0.000000
0.994382 0.090064 0.000000
1.000000 0.089424 0.000000
1.000000 0.088785 0.000000
1.000000 0.088147 0.000000
0.000000 0.144073 0.000000
0.030773 0.143275 0.000000
0.068878 0.142531 0.000000
0.105997 0.141807 0.000000
0.142492 0.141095 0.000000
0.178527 0.140391 0.000000
0.214202 0.139695 0.000000
0.249579 0.139005 0.000000
0.284704 0.138319 0.000000
0.319609 0.137638 0.000000
0.354321 0.136961 0.000000
0.388859 0.136287 0.000000
0.423240 0.135616 0.000000
0.457478 0.134948 0.000000
0.491584 0.134282 0.000000
0.525569 0.133619 0.000000
0.559441 0.132958 0.000000
0.593207 0.132299 0.000000
0.626873 0.131642 0.000000
0.660446 0.130987 0.000000
0.693931 0.130333 0.000000
0.727332 0.129681 0.000000
0.760654 0.129031 0.000000
0.793900 0.128382 0.000000
0.827074 0.127735 0.000000
0.860179 0.127089 0.000000
0.893218 0.126444 0.000000
0.926193 0.125801 0.000000
0.959107 0.125158 0.000000
0.991962 0.124517 0.000000
1.000000 0.123877 0.000000
1.000000 0.123238 0.000000
1.000000 0.122600 0.000000
0.000000 0.178093 0.000000
0.028384 0.177295 0.000000
0.066489 0.176551 0.000000
0.103608 0.175827 0.000000
0.140102 0.175115 0.000000
0.176138 0.174411 0.000000
0.211813 0.173715 0.000000
0.247190 0.173025 0.000000
0.282315 0.172339 0.000000
0.317220 0.171658 0.000000
0.351932 0.170981 0.000000
0.386470 0.170307 0.000000
0.420851 0.169636 0.000000
0.455089 0.168968 0.000000
0.489195 0.168302 0.000000
0.523180 0.167639 0.000000
0.557052 0.166978 0.000000
0.590817 0.166319 0.000000
0.624484 0.165662 0.000000
0.658057 0.165007 0.000000
0.691542 0.164353 0.000000
0.724943 0.163701 0.000000
0.758265 0.163051 0.000000
0.791511 0.162402 0.000000
0.824685 0.161755 0.000000
0.857790 0.161109 0.000000
0.890829 0.160464 0.000000
0.923804 0.159821 0.000000
0.956718 0.159178 0.000000
0.989573 0.158537 0.000000
1.000000 0.157897 0.000000
1.000000 0.157258 0.000000
1.000000 0.156620 0.000000
0.000000 0.211772 0.000000
0.026018 0.210974 0.000000
0.064123 0.210230 0.000000
0.101243 0.209506 0.000000
0.137737 0.208794 0.000000
0.173773 0.208091 0.000000
0.209448 0.207394 0.000000
0.244825 0.206704 0.000000
0.279950 0.206019 0.000000
0.314855 0.205337 0.000000
0.349566 0.204660 0.000000
0.384104 0.203986 0.000000
0.418486 0.203315 0.000000
0.452724 0.202647 0.000000
0.486830 0.201981 0.000000
0.520815 0.201318 0.000000
0.554686 0.200657 0.000000
0.588452 0.199998 0.000000
0.622119 0.199341 0.000000
0.655692 0.198686 0.000000
0.689177 0.198032 0.000000
0.722578 0.197381 0.000000
0.755900 0.196730 0.000000
0.789146 0.196082 0.000000
0.822320 0.195434 0.000000
0.855425 0.194788 0.000000
0.888463 0.194143 0.000000
0.921439 0.193500 0.000000
0.954353 0.192858 0.000000
0.987208 0.192216 0.000000
1.000000 0.191576 0.000000
1.000000 0.190937 0.000000
1.000000 0.190299 0.000000
0.000000 0.245170 0.000000
0.023673 0.244372 0.000000
0.061778 0.243629 0.000000
0.098898 0.242904 0.000000
0.135392 0.242192 0.000000
0.171427 0.241489 0.000000
0.207102 0.240793 0.000000
0.242480 0.240102 0.000000
0.277604 0.239417 0.000000
0.312509 0.238736 0.000000
0.347221 0.238058 0.000000
0.381759 0.237384 0.000000
0.416140 0.236713 0.000000
0.450378 0.236045 0.000000
0.484484 0.235380 0.000000
0.518469 0.234716 0.000000
0.552341 0.234055 0.000000
0.586107 0.233396 0.000000
0.619773 0.232739 0.000000
0.653346 0.232084 0.000000
0.686831 0.231431 0.000000
0.720233 0.230779 0.000000
0.753554 0.230129 0.000000
0.786800 0.229480 0.000000
0.819974 0.228833 0.000000
0.853079 0.228187 0.000000
0.886118 0.227542 0.000000
0.919093 0.226898 0.000000
0.952007 0.226256 0.000000
0.984863 0.225615 0.000000
1.000000 0.224975 0.000000
1.000000 0.224336 0.000000
1.000000 0.223698 0.000000
0.000000 0.278330 0.000000
0.021344 0.277532 0.000000
0.059449 0.276789 0.000000
0.096569 0.276064 0.000000
0.133063 0.275352 0.000000
0.169099 0.274649 0.000000
0.204774 0.273953 0.000000
0.240151 0.273262 0.000000
0.275275 0.272577 0.000000
0.310181 0.271896 0.000000
0.344892 0.271218 0.000000
0.379430 0.270544 0.000000
0.413811 0.269873 0.000000
0.448049 0.269205 0.000000
0.482156 0.268539 0.000000
0.516141 0.267876 0.000000
0.550012 0.267215 0.000000
0.583778 0.266556 0.000000
0.617445 0.265899 0.000000
0.651018 0.265244 0.000000
0.684503 0.264591 0.000000
0.717904 0.263939 0.000000
0.751226 0.263289 0.000000
0.784472 0.262640 0.000000
0.817646 0.261992 0.000000
0.850750 0.261346 0.000000
0.883789 0.260702 0.000000
0.916764 0.260058 0.000000
0.949678 0.259416 0.000000
0.982534 0.258775 0.000000
1.000000 0.258135 0.000000
1.000000 0.257496 0.000000
1.000000 0.256858 0.000000
0.000000 0.311283 0.000000
0.019030 0.310485 0.000000
0.057135 0.309741 0.000000
0.094255 0.309017 0.000000
0.130749 0.308305 0.000000
0.166785 0.307601 0.000000
0.202459 0.306905 0.000000
0.237837 0.306215 0.000000
0.272961 0.305529 0.000000
0.307866 0.304848 0.000000
0.342578 0.304171 0.000000
0.377116 0.303497 0.000000
0.411497 0.302826 0.000000
0.445735 0.302158 0.000000
0.479842 0.301492 0.000000
0.513826 0.300829 0.000000
0.547698 0.300168 0.000000
0.581464 0.299509 0.000000
0.615130 0.298852 0.000000
0.648703 0.298197 0.000000
0.682188 0.297543 0.000000
0.715590 0.296891 0.000000
0.748911 0.296241 0.000000
0.782157 0.295592 0.000000
0.815331 0.294945 0.000000
0.848436 0.294299 0.000000
0.881475 0.293654 0.000000
0.914450 0.293011 0.000000
0.947364 0.292368 0.000000
0.980220 0.291727 0.000000
1.000000 0.291087 0.000000
1.000000 0.290448 0.000000
1.000000 0.289810 0.000000
0.000000 0.344053 0.000000
0.016729 0.343255 0.000000
0.054833 0.342511 0.000000
0.091953 0.341787 0.000000
0.128447 0.341074 0.000000
0.164483 0.340371 0.000000
0.200158 0.339675 0.000000
0.235535 0.338985 0.000000
0.270660 0.338299 0.000000
0.305565 0.337618 0.000000
0.340277 0.336941 0.000000
0.374815 0.336267 0.000000
0.409196 0.335596 0.000000
0.443434 0.334927 0.000000
0.477540 0.334262 0.000000
0.511525 0.333599 0.000000
0.545397 0.332938 0.000000
0.579162 0.332279 0.000000
0.612829 0.331622 0.000000
0.646402 0.330966 0.000000
0.679887 0.330313 0.000000
0.713288 0.329661 0.000000
0.746610 0.329011 0.000000
0.779856 0.328362 0.000000
0.813030 0.327715 0.000000
0.846135 0.327069 0.000000
0.879174 0.326424 0.000000
0.912149 0.325780 0.000000
0.945063 0.325138 0.000000
0.977918 0.324497 0.000000
1.000000 0.323857 0.000000
1.000000 0.323218 0.000000
1.000000 0.322580 0.000000
0.000000 0.376659 0.000000
0.014439 0.375861 0.000000
0.052544 0.375117 0.000000
0.089663 0.374393 0.000000
0.126157 0.373680 0.000000
0.162193 0.372977 0.000000
0.197868 0.372281 0.000000
0.233245 0.371591 0.000000
0.268370 0.370905 0.000000
0.303275 0.370224 0.000000
0.337987 0.369547 0.000000
0.372525 0.368873 0.000000
0.406906 0.368202 0.000000
0.441144 0.367533 0.000000
0.475250 0.366868 0.000000
0.509235 0.366205 0.000000
0.543107 0.365544 0.000000
0.576873 0.364885 0.000000
0.610539 0.364228 0.000000
0.644112 0.363572 0.000000
0.677597 0.362919 0.000000
0.710998 0.362267 0.000000
0.744320 0.361617 0.000000
0.777566 0.360968 0.000000
0.810740 0.360321 0.000000
0.843845 0.359675 0.000000
0.876884 0.359030 0.000000
0.909859 0.358386 0.000000
0.942773 0.357744 0.000000
0.975628 0.357103 0.000000
1.000000 0.356463 0.000000
1.000000 0.355824 0.000000
1.000000 0.355186 0.000000
0.000000 0.409116 0.000000
0.012159 0.408318 0.000000
0.050264 0.407575 0.000000
0.087384 0.406850 0.000000
0.123878 0.406138 0.000000
0.159914 0.405435 0.000000
0.195589 0.404739 0.000000
0.230966 0.404048 0.000000
0.266091 0.403363 0.000000
0.300996 0.402682 0.000000
0.335707 0.402004 0.000000
0.370245 0.401330 0.000000
0.404626 0.400659 0.000000
0.438864 0.399991 0.000000
0.472971 0.399326 0.000000
0.506956 0.398663 0.000000
0.540827 0.398002 0.000000
0.574593 0.397343 0.000000
0.608260 0.396686 0.000000
0.641833 0.396030 0.000000
0.675318 0.395377 0.000000
0.708719 0.394725 0.000000
0.742041 0.394075 0.000000
0.775287 0.393426 0.000000
0.808461 0.392779 0.000000
0.841566 0.392133 0.000000
0.874604 0.391488 0.000000
0.907579 0.390844 0.000000
0.940494 0.390202 0.000000
0.973349 0.389561 0.000000
1.000000 0.388921 0.000000
1.000000 0.388282 0.000000
1.000000 0.387644 0.000000
0.000000 0.441439 0.000000
0.009889 0.440641 0.000000
0.047994 0.439898 0.000000
0.085114 0.439173 0.000000
0.121608 0.438461 0.000000
0.157644 0.437758 0.000000
0.193319 0.437062 0.000000
0.228696 0.436371 0.000000
0.263821 0.435686 0.000000
0.298726 0.435005 0.000000
0.333437 0.434327 0.000000
0.367975 0.433653 0.000000
0.402356 0.432982 0.000000
0.436594 0.432314 0.000000
0.470701 0.431649 0.000000
0.504686 0.430985 0.000000
0.538557 0.430324 0.000000
0.572323 0.429665 0.000000
0.605990 0.429008 0.000000
0.639563 0.428353 0.000000
0.673048 0.427700 0.000000
0.706449 0.427048 0.000000
0.739771 0.426398 0.000000
0.773017 0.425749 0.000000
0.806191 0.425101 0.000000
0.839296 0.424455 0.000000
0.872334 0.423811 0.000000
0.905309 0.423167 0.000000
0.938224 0.422525 0.000000
0.971079 0.421884 0.000000
1.000000 0.421244 0.000000
1.000000 0.420605 0.000000
1.000000 0.419967 0.000000
0.000000 0.473638 0.000000
0.007628 0.472840 0.000000
0.045733 0.472096 0.000000
0.082853 0.471372 0.000000
0.119347 0.470660 0.000000
0.155383 0.469956 0.000000
0.191057 0.469260 0.000000
0.226435 0.468570 0.000000
0.261559 0.467884 0.000000
0.296465 0.467203 0.000000
0.331176 0.466526 0.000000
0.365714 0.465852 0.000000
0.400095 0.465181 0.000000
0.434333 0.464513 0.000000
0.468440 0.463847 0.000000
0.502424 0.463184 0.000000
0.536296 0.462523 0.000000
0.570062 0.461864 0.000000
0.603728 0.461207 0.000000
0.637302 0.460552 0.000000
0.670786 0.459898 0.000000
0.704188 0.459247 0.000000
0.737510 0.458596 0.000000
0.770756 0.457947 0.000000
0.803930 0.457300 0.000000
0.837034 0.456654 0.000000
0.870073 0.456009 0.000000
0.903048 0.455366 0.000000
0.935962 0.454723 0.000000
0.968818 0.454082 0.000000
1.000000 0.453442 0.000000
1.000000 0.452803 0.000000
1.000000 0.452165 0.000000
0.000000 0.505722 0.000000
0.005375 0.504924 0.000000
0.043480 0.504180 0.000000
0.080600 0.503456 0.000000
0.117094 0.502743 0.000000
0.153129 0.502040 0.000000
0.188804 0.501344 0.000000
0.224182 0.500654 0.000000
0.259306 0.499968 0.000000
0.294211 0.499287 0.000000
0.328923 0.498610 0.000000
0.363461 0.497936 0.000000
0.397842 0.497265 0.000000
0.432080 0.496596 0.000000
0.466186 0.495931 0.000000
0.500171 0.495268 0.000000
0.534043 0.494607 0.000000
0.567809 0.493948 0.000000
0.601475 0.493291 0.000000
0.635048 0.492635 0.000000
0.668533 0.491982 0.000000
0.701935 0.491330 0.000000
0.735256 0.490680 0.000000
0.768502 0.490031 0.000000
0.801676 0.489384 0.000000
0.834781 0.488738 0.000000
0.867820 0.488093 0.000000
0.900795 0.487449 0.000000
0.933709 0.486807 0.000000
0.966565 0.486166 0.000000
0.999363 0.485526 0.000000
1.000000 0.484887 0.000000
1.000000 0.484249 0.000000
0.000000 0.537698 0.000000
0.003129 0.536900 0.000000
0.041234 0.536157 0.000000
0.078354 0.535432 0.000000
0.114848 0.534720 0.000000
0.150884 0.534017 0.000000
0.186559 0.533321 0.000000
0.221936 0.532630 0.000000
0.257061 0.531945 0.000000
0.291966 0.531264 0.000000
0.326677 0.530586 0.000000
0.361215 0.529912 0.000000
0.395596 0.529241 0.000000
0.429834 0.528573 0.000000
0.463941 0.527908 0.000000
0.497926 0.527244 0.000000
0.531797 0.526583 0.000000
0.565563 0.525925 0.000000
0.599230 0.525268 0.000000
0.632803 0.524612 0.000000
0.666288 0.523959 0.000000
0.699689 0.523307 0.000000
0.733011 0.522657 0.000000
0.766257 0.522008 0.000000
0.799431 0.521361 0.000000
0.832535 0.520715 0.000000
0.865574 0.520070 0.000000
0.898549 0.519426 0.000000
0.931463 0.518784 0.000000
0.964319 0.518143 0.000000
0.997118 0.517503 0.000000
1.000000 0.516864 0.000000
1.000000 0.516226 0.000000
0.000000 0.569575 0.000000
0.000891 0.568777 0.000000
0.038995 0.568034 0.000000
0.076115 0.567309 0.000000
0.112609 0.566597 0.000000
0.148645 0.565894 0.000000
0.184320 0.565198 0.000000
0.219697 0.564507 0.000000
0.254822 0.563822 0.000000
0.289727 0.563141 0.000000
0.324439 0.562463 0.000000
0.358977 0.561789 0.000000
0.393358 0.561118 0.000000
0.427596 0.560450 0.000000
0.461702 0.559785 0.000000
0.495687 0.559121 0.000000
0.529559 0.558460 0.000000
0.563324 0.557802 0.000000
0.596991 0.557145 0.000000
0.630564 0.556489 0.000000
0.664049 0.555836 0.000000
0.697450 0.555184 0.000000
0.730772 0.554534 0.000000
0.764018 0.553885 0.000000
0.797192 0.553238 0.000000
0.830297 0.552592 0.000000
0.863336 0.551947 0.000000
0.896311 0.551303 0.000000
0.929225 0.550661 0.000000
0.962080 0.550020 0.000000
0.994879 0.549380 0.000000
1.000000 0.548741 0.000000
1.000000 0.548103 0.000000
0.000000 0.601359 0.000000
0.000000 0.600561 0.000000
0.036763 0.599817 0.000000
0.073883 0.599093 0.000000
0.110377 0.598381 0.000000
0.146413 0.597677 0.000000
0.182088 0.596981 0.000000
0.217465 0.596291 0.000000
0.252590 0.595605 0.000000
0.287495 0.594924 0.000000
0.322206 0.594247 0.000000
0.356744 0.593573 0.000000
0.391126 0.592902 0.000000
0.425364 0.592234 0.000000
0.459470 0.591568 0.000000
0.493455 0.590905 0.000000
0.527326 0.590244 0.000000
0.561092 0.589585 0.000000
0.594759 0.588928 0.000000
0.628332 0.588273 0.000000
0.661817 0.587619 0.000000
0.695218 0.586967 0.000000
0.728540 0.586317 0.000000
0.761786 0.585668 0.000000
0.794960 0.585021 0.000000
0.828065 0.584375 0.000000
0.861103 0.583730 0.000000
0.894079 0.583087 0.000000
0.926993 0.582444 0.000000
0.959848 0.581803 0.000000
0.992647 0.581163 0.000000
1.000000 0.580524 0.000000
1.000000 0.579886 0.000000
0.000000 0.633054 0.000000
0.000000 0.632256 0.000000
0.034537 0.631512 0.000000
0.071657 0.630788 0.000000
0.108151 0.630076 0.000000
0.144187 0.629372 0.000000
0.179862 0.628676 0.000000
0.215239 0.627986 0.000000
0.250364 0.627300 0.000000
0.285269 0.626619 0.000000
0.319981 0.625942 0.000000
0.354519 0.625268 0.000000
0.388900 0.624597 0.000000
0.423138 0.623929 0.000000
0.457244 0.623263 0.000000
0.491229 0.622600 0.000000
0.525101 0.621939 0.000000
0.558866 0.621280 0.000000
0.592533 0.620623 0.000000
0.626106 0.619968 0.000000
0.659591 0.619314 0.000000
0.692992 0.618663 0.000000
0.726314 0.618012 0.000000
0.759560 0.617363 0.000000
0.792734 0.616716 0.000000
0.825839 0.616070 0.000000
0.858878 0.615425 0.000000
0.891853 0.614782 0.000000
0.924767 0.614139 0.000000
0.957622 0.613498 0.000000
0.990421 0.612858 0.000000
1.000000 0.612219 0.000000
1.000000 0.611581 0.000000
0.000000 0.664666 0.000000
0.000000 0.663868 0.000000
0.032317 0.663124 0.000000
0.069437 0.662400 0.000000
0.105931 0.661687 0.000000
0.141967 0.660984 0.000000
0.177642 0.660288 0.000000
0.213019 0.659598 0.000000
0.248144 0.658912 0.000000
0.283049 0.658231 0.000000
0.317761 0.657554 0.000000
0.352299 0.656880 0.000000
0.386680 0.656209 0.000000
0.420918 0.655541 0.000000
0.455024 0.654875 0.000000
0.489009 0.654212 0.000000
0.522881 0.653551 0.000000
0.556646 0.652892 0.000000
0.590313 0.652235 0.000000
0.623886 0.651580 0.000000
0.657371 0.650926 0.000000
0.690772 0.650274 0.000000
0.724094 0.649624 0.000000
0.757340 0.648975 0.000000
0.790514 0.648328 0.000000
0.823619 0.647682 0.000000
0.856658 0.647037 0.000000
0.889633 0.646394 0.000000
0.922547 0.645751 0.000000
0.955402 0.645110 0.000000
0.988201 0.644470 0.000000
1.000000 0.643831 0.000000
1.000000 0.643193 0.000000
0.000000 0.696198 0.000000
0.000000 0.695401 0.000000
0.030103 0.694657 0.000000
0.067223 0.693933 0.000000
0.103717 0.693220 0.000000
0.139753 0.692517 0.000000
0.175427 0.691821 0.000000
0.210805 0.691131 0.000000
0.245929 0.690445 0.000000
0.280835 0.689764 0.000000
0.315546 0.689086 0.000000
0.350084 0.688412 0.000000
0.384465 0.687742 0.000000
0.418703 0.687073 0.000000
0.452810 0.686408 0.000000
0.486794 0.685745 0.000000
0.520666 0.685084 0.000000
0.554432 0.684425 0.000000
0.588098 0.683768 0.000000
0.621672 0.683112 0.000000
0.655156 0.682459 0.000000
0.688558 0.681807 0.000000
0.721880 0.681157 0.000000
0.755126 0.680508 0.000000
0.788300 0.679861 0.000000
0.821404 0.679215 0.000000
0.854443 0.678570 0.000000
0.887418 0.677926 0.000000
0.920332 0.677284 0.000000
0.953188 0.676643 0.000000
0.985987 0.676003 0.000000
1.000000 0.675364 0.000000
1.000000 0.674726 0.000000
0.000000 0.727656 0.000000
0.000000 0.726858 0.000000
0.027894 0.726115 0.000000
0.065013 0.725390 0.000000
0.101508 0.724678 0.000000
0.137543 0.723975 0.000000
0.173218 0.723279 0.000000
0.208596 0.722588 0.000000
0.243720 0.721903 0.000000
0.278625 0.721222 0.000000
0.313337 0.720544 0.000000
0.347875 0.719870 0.000000
0.382256 0.719199 0.000000
0.416494 0.718531 0.000000
0.450600 0.717866 0.000000
0.484585 0.717202 0.000000
0.518457 0.716541 0.000000
0.552223 0.715882 0.000000
0.585889 0.715225 0.000000
0.619462 0.714570 0.000000
0.652947 0.713917 0.000000
0.686349 0.713265 0.000000
0.719670 0.712615 0.000000
0.752916 0.711966 0.000000
0.786090 0.711319 0.000000
0.819195 0.710672 0.000000
0.852234 0.710028 0.000000
0.885209 0.709384 0.000000
0.918123 0.708742 0.000000
0.950979 0.708101 0.000000
0.983777 0.707461 0.000000
1.000000 0.706822 0.000000
1.000000 0.706184 0.000000
0.000000 0.759043 0.000000
0.000000 0.758245 0.000000
0.025690 0.757501 0.000000
0.062809 0.756777 0.000000
0.099303 0.756064 0.000000
0.135339 0.755361 0.000000
0.171014 0.754665 0.000000
0.206391 0.753975 0.000000
0.241516 0.753289 0.000000
0.276421 0.752608 0.000000
0.311133 0.751931 0.000000
0.345671 0.751257 0.000000
0.380052 0.750586 0.000000
0.414290 0.749918 0.000000
0.448396 0.749252 0.000000
0.482381 0.748589 0.000000
0.516253 0.747928 0.000000
0.550018 0.747269 0.000000
0.583685 0.746612 0.000000
0.617258 0.745957 0.000000
0.650743 0.745303 0.000000
0.684144 0.744651 0.000000
0.717466 0.744001 0.000000
0.750712 0.743352 0.000000
0.783886 0.742705 0.000000
0.816991 0.742059 0.000000
0.850030 0.741414 0.000000
0.883005 0.740771 0.000000
0.915919 0.740128 0.000000
0.948774 0.739487 0.000000
0.981573 0.738847 0.000000
1.000000 0.738208 0.000000
1.000000 0.737570 0.000000
0.000000 0.790361 0.000000
0.000000 0.789563 0.000000
0.023490 0.788819 0.000000
0.060610 0.788095 0.000000
0.097104 0.787383 0.000000
0.133140 0.786679 0.000000
0.168815 0.785983 0.000000
0.204192 0.785293 0.000000
0.239317 0.784607 0.000000
0.274222 0.783926 0.000000
0.308933 0.783249 0.000000
0.343471 0.782575 0.000000
0.377852 0.781904 0.000000
0.412090 0.781236 0.000000
0.446197 0.780570 0.000000
0.480182 0.779907 0.000000
0.514053 0.779246 0.000000
0.547819 0.778587 0.000000
0.581486 0.777930 0.000000
0.615059 0.777275 0.000000
0.648544 0.776621 0.000000
0.681945 0.775970 0.000000
0.715267 0.775319 0.000000
0.748513 0.774670 0.000000
0.781687 0.774023 0.000000
0.814792 0.773377 0.000000
0.847830 0.772732 0.000000
0.880805 0.772089 0.000000
0.913720 0.771446 0.000000
0.946575 0.770805 0.000000
0.979374 0.770165 0.000000
1.000000 0.769526 0.000000
1.000000 0.768888 0.000000
0.000000 0.821614 0.000000
0.000000 0.820816 0.000000
0.021295 0.820072 0.000000
0.058415 0.819348 0.000000
0.094909 0.818636 0.000000
0.130945 0.817932 0.000000
0.166620 0.817236 0.000000
0.201997 0.816546 0.000000
0.237122 0.815860 0.000000
0.272027 0.815179 0.000000
0.306738 0.814502 0.000000
0.341276 0.813828 0.000000
0.375658 0.813157 0.000000
0.409896 0.812489 0.000000
0.444002 0.811823 0.000000
0.477987 0.811160 0.000000
0.511858 0.810499 0.000000
0.545624 0.809840 0.000000
0.579291 0.809183 0.000000
0.612864 0.808528 0.000000
0.646349 0.807874 0.000000
0.679750 0.807223 0.000000
0.713072 0.806572 0.000000
0.746318 0.805923 0.000000
0.779492 0.805276 0.000000
0.812597 0.804630 0.000000
0.845635 0.803985 0.000000
0.878611 0.803342 0.000000
0.911525 0.802699 0.000000
0.944380 0.802058 0.000000
0.977179 0.801418 0.000000
1.000000 0.800779 0.000000
1.000000 0.800141 0.000000
0.000000 0.852804 0.000000
0.000000 0.852006 0.000000
0.019105 0.851263 0.000000
0.056225 0.850538 0.000000
0.092719 0.849826 0.000000
0.128755 0.849123 0.000000
0.164429 0.848427 0.000000
0.199807 0.847736 0.000000
0.234931 0.847051 0.000000
0.269836 0.846370 0.000000
0.304548 0.845692 0.000000
0.339086 0.845018 0.000000
0.373467 0.844347 0.000000
0.407705 0.843679 0.000000
0.441812 0.843014 0.000000
0.475796 0.842350 0.000000
0.509668 0.841689 0.000000
0.543434 0.841031 0.000000
0.577100 0.840374 0.000000
0.610673 0.839718 0.000000
0.644158 0.839065 0.000000
0.677560 0.838413 0.000000
0.710881 0.837763 0.000000
0.744128 0.837114 0.000000
0.777301 0.836467 0.000000
