luts/warm_vintage.cube
# warm_vintage
# Warm vintage film look - golden nostalgic aesthetic
# Generated by VHS Upscaler LUT Generator
LUT_3D_SIZE 33
0.101750 0.097250 0.090500
0.132477 0.097250 0.090500
0.163203 0.097250 0.090500
0.193930 0.097250 0.090500
0.224656 0.097250 0.090500
0.255383 0.097250 0.090500
0.286109 0.097250 0.090500
0.316836 0.097250 0.090500
0.347562 0.097250 0.090500
0.378289 0.097250 0.090500
0.409016 0.097250 0.090500
0.439742 0.097250 0.090500
0.470469 0.097250 0.090500
0.501195 0.097250 0.090500
0.531922 0.097250 0.090500
0.562648 0.097250 0.090500
0.593375 0.097250 0.090500
0.624102 0.097250 0.090500
0.654828 0.097250 0.090500
0.685555 0.097250 0.090500
0.716281 0.097250 0.090500
0.747008 0.097250 0.090500
0.777734 0.097250 0.090500
0.808461 0.097250 0.090500
0.839187 0.097250 0.090500
0.869914 0.097250 0.090500
0.900641 0.097250 0.090500
0.931367 0.097250 0.090500
0.962094 0.097250 0.090500
0.992820 0.097250 0.090500
1.000000 0.097250 0.090500
1.000000 0.097250 0.090500
1.000000 0.097250 0.090500
0.101750 0.125305 0.090500
0.132477 0.125305 0.090500
0.163203 0.125305 0.090500
0.193930 0.125305 0.090500
0.224656 0.125305 0.090500
0.255383 0.125305 0.090500
0.286109 0.125305 0.090500
0.316836 0.125305 0.090500
0.347562 0.125305 0.090500
0.378289 0.125305 0.090500
0.409016 0.125305 0.090500
0.439742 0.125305 0.090500
0.470469 0.125305 0.090500
0.501195 0.125305 0.090500
0.531922 0.125305 0.090500
0.562648 0.125305 0.090500
0.593375 0.125305 0.090500
0.624102 0.125305 0.090500
0.654828 0.125305 0.090500
0.685555 0.125305 0.090500
0.716281 0.125305 0.090500
0.747008 0.125305 0.090500
0.777734 0.125305 0.090500
0.808461 0.125305 0.090500
0.839187 0.125305 0.090500
0.869914 0.125305 0.090500
0.900641 0.125305 0.090500
0.931367 0.125305 0.090500
0.962094 0.125305 0.090500
0.992820 0.125305 0.090500
1.000000 0.125305 0.090500
1.000000 0.125305 0.090500
1.000000 0.125305 0.090500
0.101750 0.153359 0.090500
0.132477 0.153359 0.090500
0.163203 0.153359 0.090500
0.193930 0.153359 0.090500
0.224656 0.153359 0.090500
0.255383 0.153359 0.090500
0.286109 0.153359 0.090500
0.316836 0.153359 0.090500
0.347562 0.153359 0.090500
0.378289 0.153359 0.090500
0.409016 0.153359 0.090500
0.439742 0.153359 0.090500
0.470469 0.153359 0.090500
0.501195 0.153359 0.090500
0.531922 0.153359 0.090500
0.562648 0.153359 0.090500
0.593375 0.153359 0.090500
0.624102 0.153359 0.090500
0.654828 0.153359 0.090500
0.685555 0.153359 0.090500
0.716281 0.153359 0.090500
0.747008 0.153359 0.090500
0.777734 0.153359 0.090500
0.808461 0.153359 0.090500
0.839187 0.153359 0.090500
0.869914 0.153359 0.090500
0.900641 0.153359 0.090500
0.931367 0.153359 0.090500
0.962094 0.153359 0.090500
0.992820 0.153359 0.090500
1.000000 0.153359 0.090500
1.000000 0.153359 0.090500
1.000000 0.153359 0.090500
0.101750 0.181414 0.090500
0.132477 0.181414 0.090500
0.163203 0.181414 0.090500
0.193930 0.181414 0.090500
0.224656 0.181414 0.090500
0.255383 0.181414 0.090500
0.286109 0.181414 0.090500
0.316836 0.181414 0.090500
0.347562 0.181414 0.090500
0.378289 0.181414 0.090500
0.409016 0.181414 0.090500
0.439742 0.181414 0.090500
0.470469 0.181414 0.090500
0.501195 0.181414 0.090500
0.531922 0.181414 0.090500
0.562648 0.181414 0.090500
0.593375 0.181414 0.090500
0.624102 0.181414 0.090500
0.654828 0.181414 0.090500
0.685555 0.181414 0.090500
0.716281 0.181414 0.090500
0.747008 0.181414 0.090500
0.777734 0.181414 0.090500
0.808461 0.181414 0.090500
0.839187 0.181414 0.090500
0.869914 0.181414 0.090500
0.900641 0.181414 0.090500
0.931367 0.181414 0.090500
0.962094 0.181414 0.090500
0.992820 0.181414 0.090500
1.000000 0.181414 0.090500
1.000000 0.181414 0.090500
1.000000 0.181414 0.090500
0.101750 0.209469 0.090500
0.132477 0.209469 0.090500
0.163203 0.209469 0.090500
0.193930 0.209469 0.090500
0.224656 0.209469 0.090500
0.255383 0.209469 0.090500
0.286109 0.209469 0.090500
0.316836 0.209469 0.090500
0.347562 0.209469 0.090500
0.378289 0.209469 0.090500
0.409016 0.209469 0.090500
0.439742 0.209469 0.090500
0.470469 0.209469 0.090500
0.501195 0.209469 0.090500
0.531922 0.209469 0.090500
0.562648 0.209469 0.090500
0.593375 0.209469 0.090500
0.624102 0.209469 0.090500
0.654828 0.209469 0.090500
0.685555 0.209469 0.090500
0.716281 0.209469 0.090500
0.747008 0.209469 0.090500
0.777734 0.209469 0.090500
0.808461 0.209469 0.090500
0.839187 0.209469 0.090500
0.869914 0.209469 0.090500
0.900641 0.209469 0.090500
0.931367 0.209469 0.090500
0.962094 0.209469 0.090500
0.992820 0.209469 0.090500
1.000000 0.209469 0.090500
1.000000 0.209469 0.090500
1.000000 0.209469 0.090500
0.101750 0.237523 0.090500
0.132477 0.237523 0.090500
0.163203 0.237523 0.090500
0.193930 0.237523 0.090500
0.224656 0.237523 0.090500
0.255383 0.237523 0.090500
0.286109 0.237523 0.090500
0.316836 0.237523 0.090500
0.347562 0.237523 0.090500
0.378289 0.237523 0.090500
0.409016 0.237523 0.090500
0.439742 0.237523 0.090500
0.470469 0.237523 0.090500
0.501195 0.237523 0.090500
0.531922 0.237523 0.090500
0.562648 0.237523 0.090500
0.593375 0.237523 0.090500
0.624102 0.237523 0.090500
0.654828 0.237523 0.090500
0.685555 0.237523 0.090500
0.716281 0.237523 0.090500
0.747008 0.237523 0.090500
0.777734 0.237523 0.090500
0.808461 0.237523 0.090500
0.839187 0.237523 0.090500
0.869914 0.237523 0.090500
0.900641 0.237523 0.090500
0.931367 0.237523 0.090500
0.962094 0.237523 0.090500
0.992820 0.237523 0.090500
1.000000 0.237523 0.090500
1.000000 0.237523 0.090500
1.000000 0.237523 0.090500
0.101750 0.265578 0.090500
0.132477 0.265578 0.090500
0.163203 0.265578 0.090500
0.193930 0.265578 0.090500
0.224656 0.265578 0.090500
0.255383 0.265578 0.090500
0.286109 0.265578 0.090500
0.316836 0.265578 0.090500
0.347562 0.265578 0.090500
0.378289 0.265578 0.090500
0.409016 0.265578 0.090500
0.439742 0.265578 0.090500
0.470469 0.265578 0.090500
0.501195 0.265578 0.090500
0.531922 0.265578 0.090500
0.562648 0.265578 0.090500
0.593375 0.265578 0.090500
0.624102 0.265578 0.090500
0.654828 0.265578 0.090500
0.685555 0.265578 0.090500
0.716281 0.265578 0.090500
0.747008 0.265578 0.090500
0.777734 0.265578 0.090500
0.808461 0.265578 0.090500
0.839187 0.265578 0.090500
0.869914 0.265578 0.090500
0.900641 0.265578 0.090500
0.931367 0.265578 0.090500
0.962094 0.265578 0.090500
0.992820 0.265578 0.090500
1.000000 0.265578 0.090500
1.000000 0.265578 0.090500
1.000000 0.265578 0.090500
0.101750 0.293633 0.090500
0.132477 0.293633 0.090500
0.163203 0.293633 0.090500
0.193930 0.293633 0.090500
0.224656 0.293633 0.090500
0.255383 0.293633 0.090500
0.286109 0.293633 0.090500
0.316836 0.293633 0.090500
0.347562 0.293633 0.090500
0.378289 0.293633 0.090500
0.409016 0.293633 0.090500
0.439742 0.293633 0.090500
0.470469 0.293633 0.090500
0.501195 0.293633 0.090500
0.531922 0.293633 0.090500
0.562648 0.293633 0.090500
0.593375 0.293633 0.090500
0.624102 0.293633 0.090500
0.654828 0.293633 0.090500
0.685555 0.293633 0.090500
0.716281 0.293633 0.090500
0.747008 0.293633 0.090500
0.777734 0.293633 0.090500
0.808461 0.293633 0.090500
0.839187 0.293633 0.090500
0.869914 0.293633 0.090500
0.900641 0.293633 0.090500
0.931367 0.293633 0.090500
0.962094 0.293633 0.090500
0.992820 0.293633 0.090500
1.000000 0.293633 0.090500
1.000000 0.293633 0.090500
1.000000 0.293633 0.090500
0.101750 0.321688 0.090500
0.132477 0.321688 0.090500
0.163203 0.321688 0.090500
0.193930 0.321688 0.090500
0.224656 0.321688 0.090500
0.255383 0.321688 0.090500
0.286109 0.321688 0.090500
0.316836 0.321688 0.090500
0.347562 0.321688 0.090500
0.378289 0.321688 0.090500
0.409016 0.321688 0.090500
0.439742 0.321688 0.090500
0.470469 0.321688 0.090500
0.501195 0.321688 0.090500
0.531922 0.321688 0.090500
0.562648 0.321688 0.090500
0.593375 0.321688 0.090500
0.624102 0.321688 0.090500
0.654828 0.321688 0.090500
0.685555 0.321688 0.090500
0.716281 0.321688 0.090500
0.747008 0.321688 0.090500
0.777734 0.321688 0.090500
0.808461 0.321688 0.090500
0.839187 0.321688 0.090500
0.869914 0.321688 0.090500
0.900641 0.321688 0.090500
0.931367 0.321688 0.090500
0.962094 0.321688 0.090500
0.992820 0.321688 0.090500
1.000000 0.321688 0.090500
1.000000 0.321688 0.090500
1.000000 0.321688 0.090500
0.101750 0.349742 0.090500
0.132477 0.349742 0.090500
0.163203 0.349742 0.090500
0.193930 0.349742 0.090500
0.224656 0.349742 0.090500
0.255383 0.349742 0.090500
0.286109 0.349742 0.090500
0.316836 0.349742 0.090500
0.347562 0.349742 0.090500
0.378289 0.349742 0.090500
0.409016 0.349742 0.090500
0.439742 0.349742 0.090500
0.470469 0.349742 0.090500
0.501195 0.349742 0.090500
0.531922 0.349742 0.090500
0.562648 0.349742 0.090500
0.593375 0.349742 0.090500
0.624102 0.349742 0.090500
0.654828 0.349742 0.090500
0.685555 0.349742 0.090500
0.716281 0.349742 0.090500
0.747008 0.349742 0.090500
0.777734 0.349742 0.090500
0.808461 0.349742 0.090500
0.839187 0.349742 0.090500
0.869914 0.349742 0.090500
0.900641 0.349742 0.090500
0.931367 0.349742 0.090500
0.962094 0.349742 0.090500
0.992820 0.349742 0.090500
1.000000 0.349742 0.090500
1.000000 0.349742 0.090500
1.000000 0.349742 0.090500
0.101750 0.377797 0.090500
0.132477 0.377797 0.090500
0.163203 0.377797 0.090500
0.193930 0.377797 0.090500
0.224656 0.377797 0.090500
0.255383 0.377797 0.090500
0.286109 0.377797 0.090500
0.316836 0.377797 0.090500
0.347562 0.377797 0.090500
0.378289 0.377797 0.090500
0.409016 0.377797 0.090500
0.439742 0.377797 0.090500
0.470469 0.377797 0.090500
0.501195 0.377797 0.090500
0.531922 0.377797 0.090500
0.562648 0.377797 0.090500
0.593375 0.377797 0.090500
0.624102 0.377797 0.090500
0.654828 0.377797 0.090500
0.685555 0.377797 0.090500
0.716281 0.377797 0.090500
0.747008 0.377797 0.090500
0.777734 0.377797 0.090500
0.808461 0.377797 0.090500
0.839187 0.377797 0.090500
0.869914 0.377797 0.090500
0.900641 0.377797 0.090500
0.931367 0.377797 0.090500
0.962094 0.377797 0.090500
0.992820 0.377797 0.090500
1.000000 0.377797 0.090500
1.000000 0.377797 0.090500
1.000000 0.377797 0.090500
0.101750 0.405852 0.090500
0.132477 0.405852 0.090500
0.163203 0.405852 0.090500
0.193930 0.405852 0.090500
0.224656 0.405852 0.090500
0.255383 0.405852 0.090500
0.286109 0.405852 0.090500
0.316836 0.405852 0.090500
0.347562 0.405852 0.090500
0.378289 0.405852 0.090500
0.409016 0.405852 0.090500
0.439742 0.405852 0.090500
0.470469 0.405852 0.090500
0.501195 0.405852 0.090500
0.531922 0.405852 0.090500
0.562648 0.405852 0.090500
0.593375 0.405852 0.090500
0.624102 0.405852 0.090500
0.654828 0.405852 0.090500
0.685555 0.405852 0.090500
0.716281 0.405852 0.090500
0.747008 0.405852 0.090500
0.777734 0.405852 0.090500
0.808461 0.405852 0.090500
0.839187 0.405852 0.090500
0.869914 0.405852 0.090500
0.900641 0.405852 0.090500
0.931367 0.405852 0.090500
0.962094 0.405852 0.090500
0.992820 0.405852 0.090500
1.000000 0.405852 0.090500
1.000000 0.405852 0.090500
1.000000 0.405852 0.090500
0.101750 0.433906 0.090500
0.132477 0.433906 0.090500
0.163203 0.433906 0.090500
0.193930 0.433906 0.090500
0.224656 0.433906 0.090500
0.255383 0.433906 0.090500
0.286109 0.433906 0.090500
0.316836 0.433906 0.090500
0.347562 0.433906 0.090500
0.378289 0.433906 0.090500
0.409016 0.433906 0.090500
0.439742 0.433906 0.090500
0.470469 0.433906 0.090500
0.501195 0.433906 0.090500
0.531922 0.433906 0.090500
0.562648 0.433906 0.090500
0.593375 0.433906 0.090500
0.624102 0.433906 0.090500
0.654828 0.433906 0.090500
0.685555 0.433906 0.090500
0.716281 0.433906 0.090500
0.747008 0.433906 0.090500
0.777734 0.433906 0.090500
0.808461 0.433906 0.090500
0.839187 0.433906 0.090500
0.869914 0.433906 0.090500
0.900641 0.433906 0.090500
0.931367 0.433906 0.090500
0.962094 0.433906 0.090500
0.992820 0.433906 0.090500
1.000000 0.433906 0.090500
1.000000 0.433906 0.090500
1.000000 0.433906 0.090500
0.101750 0.461961 0.090500
0.132477 0.461961 0.090500
0.163203 0.461961 0.090500
0.193930 0.461961 0.090500
0.224656 0.461961 0.090500
0.255383 0.461961 0.090500
0.286109 0.461961 0.090500
0.316836 0.461961 0.090500
0.347562 0.461961 0.090500
0.378289 0.461961 0.090500
0.409016 0.461961 0.090500
0.439742 0.461961 0.090500
0.470469 0.461961 0.090500
0.501195 0.461961 0.090500
0.531922 0.461961 0.090500
0.562648 0.461961 0.090500
0.593375 0.461961 0.090500
0.624102 0.461961 0.090500
0.654828 0.461961 0.090500
0.685555 0.461961 0.090500
0.716281 0.461961 0.090500
0.747008 0.461961 0.090500
0.777734 0.461961 0.090500
0.808461 0.461961 0.090500
0.839187 0.461961 0.090500
0.869914 0.461961 0.090500
0.900641 0.461961 0.090500
0.931367 0.461961 0.090500
0.962094 0.461961 0.090500
0.992820 0.461961 0.090500
1.000000 0.461961 0.090500
1.000000 0.461961 0.090500
1.000000 0.461961 0.090500
0.101750 0.490016 0.090500
0.132477 0.490016 0.090500
0.163203 0.490016 0.090500
0.193930 0.490016 0.090500
0.224656 0.490016 0.090500
0.255383 0.490016 0.090500
0.286109 0.490016 0.090500
0.316836 0.490016 0.090500
0.347562 0.490016 0.090500
0.378289 0.490016 0.090500
0.409016 0.490016 0.090500
0.439742 0.490016 0.090500
0.470469 0.490016 0.090500
0.501195 0.490016 0.090500
0.531922 0.490016 0.090500
0.562648 0.490016 0.090500
0.593375 0.490016 0.090500
0.624102 0.490016 0.090500
0.654828 0.490016 0.090500
0.685555 0.490016 0.090500
0.716281 0.490016 0.090500
0.747008 0.490016 0.090500
0.777734 0.490016 0.090500
0.808461 0.490016 0.090500
0.839187 0.490016 0.090500
0.869914 0.490016 0.090500
0.900641 0.490016 0.090500
0.931367 0.490016 0.090500
0.962094 0.490016 0.090500
0.992820 0.490016 0.090500
1.000000 0.490016 0.090500
1.000000 0.490016 0.090500
1.000000 0.490016 0.090500
0.101750 0.518070 0.090500
0.132477 0.518070 0.090500
0.163203 0.518070 0.090500
0.193930 0.518070 0.090500
0.224656 0.518070 0.090500
0.255383 0.518070 0.090500
0.286109 0.518070 0.090500
0.316836 0.518070 0.090500
0.347562 0.518070 0.090500
0.378289 0.518070 0.090500
0.409016 0.518070 0.090500
0.439742 0.518070 0.090500
0.470469 0.518070 0.090500
0.501195 0.518070 0.090500
0.531922 0.518070 0.090500
0.562648 0.518070 0.090500
0.593375 0.518070 0.090500
0.624102 0.518070 0.090500
0.654828 0.518070 0.090500
0.685555 0.518070 0.090500
0.716281 0.518070 0.090500
0.747008 0.518070 0.090500
0.777734 0.518070 0.090500
0.808461 0.518070 0.090500
0.839187 0.518070 0.090500
0.869914 0.518070 0.090500
0.900641 0.518070 0.090500
0.931367 0.518070 0.090500
0.962094 0.518070 0.090500
0.992820 0.518070 0.090500
1.000000 0.518070 0.090500
1.000000 0.518070 0.090500
1.000000 0.518070 0.090500
0.101750 0.546125 0.090500
0.132477 0.546125 0.090500
0.163203 0.546125 0.090500
0.193930 0.546125 0.090500
0.224656 0.546125 0.090500
0.255383 0.546125 0.090500
0.286109 0.546125 0.090500
0.316836 0.546125 0.090500
0.347562 0.546125 0.090500
0.378289 0.546125 0.090500
0.409016 0.546125 0.090500
0.439742 0.546125 0.090500
0.470469 0.546125 0.090500
0.501195 0.546125 0.090500
0.531922 0.546125 0.090500
0.562648 0.546125 0.090500
0.593375 0.546125 0.090500
0.624102 0.546125 0.090500
0.654828 0.546125 0.090500
0.685555 0.546125 0.090500
0.716281 0.546125 0.090500
0.747008 0.546125 0.090500
0.777734 0.546125 0.090500
0.808461 0.546125 0.090500
0.839187 0.546125 0.090500
0.869914 0.546125 0.090500
0.900641 0.546125 0.090500
0.931367 0.546125 0.090500
0.962094 0.546125 0.090500
0.992820 0.546125 0.090500
1.000000 0.546125 0.090500
1.000000 0.546125 0.090500
1.000000 0.546125 0.090500
0.101750 0.574180 0.090500
0.132477 0.574180 0.090500
0.163203 0.574180 0.090500
0.193930 0.574180 0.090500
0.224656 0.574180 0.090500
0.255383 0.574180 0.090500
0.286109 0.574180 0.090500
0.316836 0.574180 0.090500
0.347562 0.574180 0.090500
0.378289 0.574180 0.090500
0.409016 0.574180 0.090500
0.439742 0.574180 0.090500
0.470469 0.574180 0.090500
0.501195 0.574180 0.090500
0.531922 0.574180 0.090500
0.562648 0.574180 0.090500
0.593375 0.574180 0.090500
0.624102 0.574180 0.090500
0.654828 0.574180 0.090500
0.685555 0.574180 0.090500
0.716281 0.574180 0.090500
0.747008 0.574180 0.090500
0.777734 0.574180 0.090500
0.808461 0.574180 0.090500
0.839187 0.574180 0.090500
0.869914 0.574180 0.090500
0.900641 0.574180 0.090500
0.931367 0.574180 0.090500
0.962094 0.574180 0.090500
0.992820 0.574180 0.090500
1.000000 0.574180 0.090500
1.000000 0.574180 0.090500
1.000000 0.574180 0.090500
0.101750 0.602234 0.090500
0.132477 0.602234 0.090500
0.163203 0.602234 0.090500
0.193930 0.602234 0.090500
0.224656 0.602234 0.090500
0.255383 0.602234 0.090500
0.286109 0.602234 0.090500
0.316836 0.602234 0.090500
0.347562 0.602234 0.090500
0.378289 0.602234 0.090500
0.409016 0.602234 0.090500
0.439742 0.602234 0.090500
0.470469 0.602234 0.090500
0.501195 0.602234 0.090500
0.531922 0.602234 0.090500
0.562648 0.602234 0.090500
0.593375 0.602234 0.090500
0.624102 0.602234 0.090500
0.654828 0.602234 0.090500
0.685555 0.602234 0.090500
0.716281 0.602234 0.090500
0.747008 0.602234 0.090500
0.777734 0.602234 0.090500
0.808461 0.602234 0.090500
0.839187 0.602234 0.090500
0.869914 0.602234 0.090500
0.900641 0.602234 0.090500
0.931367 0.602234 0.090500
0.962094 0.602234 0.090500
0.992820 0.602234 0.090500
1.000000 0.602234 0.090500
1.000000 0.602234 0.090500
1.000000 0.602234 0.090500
0.101750 0.630289 0.090500
0.132477 0.630289 0.090500
0.163203 0.630289 0.090500
0.193930 0.630289 0.090500
0.224656 0.630289 0.090500
0.255383 0.630289 0.090500
0.286109 0.630289 0.090500
0.316836 0.630289 0.090500
0.347562 0.630289 0.090500
0.378289 0.630289 0.090500
0.409016 0.630289 0.090500
0.439742 0.630289 0.090500
0.470469 0.630289 0.090500
0.501195 0.630289 0.090500
0.531922 0.630289 0.090500
0.562648 0.630289 0.090500
0.593375 0.630289 0.090500
0.624102 0.630289 0.090500
0.654828 0.630289 0.090500
0.685555 0.630289 0.090500
0.716281 0.630289 0.090500
0.747008 0.630289 0.090500
0.777734 0.630289 0.090500
0.808461 0.630289 0.090500
0.839187 0.630289 0.090500
0.869914 0.630289 0.090500
0.900641 0.630289 0.090500
0.931367 0.630289 0.090500
0.962094 0.630289 0.090500
0.992820 0.630289 0.090500
1.000000 0.630289 0.090500
1.000000 0.630289 0.090500
1.000000 0.630289 0.090500
0.101750 0.658344 0.090500
0.132477 0.658344 0.090500
0.163203 0.658344 0.090500
0.193930 0.658344 0.090500
0.224656 0.658344 0.090500
0.255383 0.658344 0.090500
0.286109 0.658344 0.090500
0.316836 0.658344 0.090500
0.347562 0.658344 0.090500
0.378289 0.658344 0.090500
0.409016 0.658344 0.090500
0.439742 0.658344 0.090500
0.470469 0.658344 0.090500
0.501195 0.658344 0.090500
0.531922 0.658344 0.090500
0.562648 0.658344 0.090500
0.593375 0.658344 0.090500
0.624102 0.658344 0.090500
0.654828 0.658344 0.090500
0.685555 0.658344 0.090500
0.716281 0.658344 0.090500
0.747008 0.658344 0.090500
0.777734 0.658344 0.090500
0.808461 0.658344 0.090500
0.839187 0.658344 0.090500
0.869914 0.658344 0.090500
0.900641 0.658344 0.090500
0.931367 0.658344 0.090500
0.962094 0.658344 0.090500
0.992820 0.658344 0.090500
1.000000 0.658344 0.090500
1.000000 0.658344 0.090500
1.000000 0.658344 0.090500
0.101750 0.686398 0.090500
0.132477 0.686398 0.090500
0.163203 0.686398 0.090500
0.193930 0.686398 0.090500
0.224656 0.686398 0.090500
0.255383 0.686398 0.090500
0.286109 0.686398 0.090500
0.316836 0.686398 0.090500
0.347562 0.686398 0.090500
0.378289 0.686398 0.090500
0.409016 0.686398 0.090500
0.439742 0.686398 0.090500
0.470469 0.686398 0.090500
0.501195 0.686398 0.090500
0.531922 0.686398 0.090500
0.562648 0.686398 0.090500
0.593375 0.686398 0.090500
0.624102 0.686398 0.090500
0.654828 0.686398 0.090500
0.685555 0.686398 0.090500
0.716281 0.686398 0.090500
0.747008 0.686398 0.090500
0.777734 0.686398 0.090500
0.808461 0.686398 0.090500
0.839187 0.686398 0.090500
0.869914 0.686398 0.090500
0.900641 0.686398 0.090500
0.931367 0.686398 0.090500
0.962094 0.686398 0.090500
0.992820 0.686398 0.090500
1.000000 0.686398 0.090500
1.000000 0.686398 0.090500
1.000000 0.686398 0.090500
0.101750 0.714453 0.090500
0.132477 0.714453 0.090500
0.163203 0.714453 0.090500
0.193930 0.714453 0.090500
0.224656 0.714453 0.090500
0.255383 0.714453 0.090500
0.286109 0.714453 0.090500
0.316836 0.714453 0.090500
0.347562 0.714453 0.090500
0.378289 0.714453 0.090500
0.409016 0.714453 0.090500
0.439742 0.714453 0.090500
0.470469 0.714453 0.090500
0.501195 0.714453 0.090500
0.531922 0.714453 0.090500
0.562648 0.714453 0.090500
0.593375 0.714453 0.090500
0.624102 0.714453 0.090500
0.654828 0.714453 0.090500
0.685555 0.714453 0.090500
0.716281 0.714453 0.090500
0.747008 0.714453 0.090500
0.777734 0.714453 0.090500
0.808461 0.714453 0.090500
0.839187 0.714453 0.090500
0.869914 0.714453 0.090500
0.900641 0.714453 0.090500
0.931367 0.714453 0.090500
0.962094 0.714453 0.090500
0.992820 0.714453 0.090500
1.000000 0.714453 0.090500
1.000000 0.714453 0.090500
1.000000 0.714409 0.093139
0.101750 0.742508 0.090500
0.132477 0.742508 0.090500
0.163203 0.742508 0.090500
0.193930 0.742508 0.090500
0.224656 0.742508 0.090500
0.255383 0.742508 0.090500
0.286109 0.742508 0.090500
0.316836 0.742508 0.090500
0.347562 0.742508 0.090500
0.378289 0.742508 0.090500
0.409016 0.742508 0.090500
0.439742 0.742508 0.090500
0.470469 0.742508 0.090500
0.501195 0.742508 0.090500
0.531922 0.742508 0.090500
0.562648 0.742508 0.090500
0.593375 0.742508 0.090500
0.624102 0.742508 0.090500
0.654828 0.742508 0.090500
0.685555 0.742508 0.090500
0.716281 0.742508 0.090500
0.747008 0.742508 0.090500
0.777734 0.742508 0.090500
0.808461 0.742508 0.090500
0.839187 0.742508 0.090500
0.869914 0.742508 0.090500
0.900641 0.742508 0.090500
0.931367 0.742508 0.090500
0.962074 0.742505 0.090546
0.990898 0.742267 0.094640
1.000000 0.742118 0.098823
1.000000 0.742058 0.103094
1.000000 0.742085 0.107453
0.101750 0.770563 0.090500
0.132477 0.770563 0.090500
0.163203 0.770563 0.090500
0.193930 0.770563 0.090500
0.224656 0.770563 0.090500
0.255383 0.770563 0.090500
0.286109 0.770563 0.090500
0.316836 0.770563 0.090500
0.347562 0.770563 0.090500
0.378289 0.770563 0.090500
0.409016 0.770563 0.090500
0.439742 0.770563 0.090500
0.470469 0.770563 0.090500
0.501195 0.770563 0.090500
0.531922 0.770563 0.090500
0.562648 0.770563 0.090500
0.593375 0.770563 0.090500
0.624102 0.770563 0.090500
0.654828 0.770563 0.090500
0.685555 0.770563 0.090500
0.716281 0.770563 0.090500
0.747008 0.770563 0.090500
0.777734 0.770563 0.090500
0.808461 0.770563 0.090500
0.839187 0.770563 0.090500
0.869497 0.770393 0.092026
0.898891 0.770001 0.096153
0.927965 0.769698 0.100368
0.956719 0.769483 0.104671
0.985153 0.769356 0.109062
1.000000 0.769318 0.113542
1.000000 0.769368 0.118110
1.000000 0.769506 0.122767
0.101750 0.798617 0.090500
0.132477 0.798617 0.090500
0.163203 0.798617 0.090500
0.193930 0.798617 0.090500
0.224656 0.798617 0.090500
0.255383 0.798617 0.090500
0.286109 0.798617 0.090500
0.316836 0.798617 0.090500
0.347562 0.798617 0.090500
0.378289 0.798617 0.090500
0.409016 0.798617 0.090500
0.439742 0.798617 0.090500
0.470469 0.798617 0.090500
0.501195 0.798617 0.090500
0.531922 0.798617 0.090500
0.562648 0.798617 0.090500
0.593375 0.798617 0.090500
0.624102 0.798617 0.090500
0.654828 0.798617 0.090500
0.685555 0.798617 0.090500
0.716281 0.798617 0.090500
0.747008 0.798617 0.090500
0.777377 0.798157 0.093518
0.807341 0.797611 0.097677
0.836986 0.797154 0.101924
0.866310 0.796784 0.106259
0.895314 0.796503 0.110683
0.923999 0.796311 0.115195
0.952363 0.796206 0.119795
0.980408 0.796190 0.124484
1.000000 0.796262 0.129260
1.000000 0.796423 0.134125
1.000000 0.796672 0.139079
0.101750 0.826672 0.090500
0.132477 0.826672 0.090500
0.163203 0.826672 0.090500
0.193930 0.826672 0.090500
0.224656 0.826672 0.090500
0.255383 0.826672 0.090500
0.286109 0.826672 0.090500
0.316836 0.826672 0.090500
0.347562 0.826672 0.090500
0.378289 0.826672 0.090500
0.409016 0.826672 0.090500
0.439742 0.826672 0.090500
0.470469 0.826672 0.090500
0.501195 0.826672 0.090500
0.531922 0.826672 0.090500
0.562648 0.826672 0.090500
0.593375 0.826672 0.090500
0.624102 0.826672 0.090500
0.654860 0.826585 0.090920
0.685714 0.825797 0.095022
0.716249 0.825097 0.099213
0.746464 0.824485 0.103492
0.776358 0.823962 0.107860
0.805933 0.823527 0.112315
0.835188 0.823180 0.116860
0.864122 0.822921 0.121492
