luts/warm_vintage.cube
# warm_vintage
# Warm vintage film look - golden nostalgic aesthetic
# Generated by VHS Upscaler LUT Generator
LUT_3D_SIZE 5
0.101750 0.097250 0.090500
0.347562 0.097250 0.090500
0.593375 0.097250 0.090500
0.839187 0.097250 0.090500
1.000000 0.097250 0.090500
0.101750 0.321688 0.090500
0.347562 0.321688 0.090500
0.593375 0.321688 0.090500
0.839187 0.321688 0.090500
1.000000 0.321688 0.090500
0.101750 0.546125 0.090500
0.347562 0.546125 0.090500
0.593375 0.546125 0.090500
0.839187 0.546125 0.090500
1.000000 0.546125 0.090500
0.101750 0.770563 0.090500
0.347562 0.770563 0.090500
0.593375 0.770563 0.090500
0.839187 0.770563 0.090500
1.000000 0.769506 0.122767
0.111074 0.990747 0.099995
0.376323 0.979508 0.136831
0.621092 0.973920 0.179316
0.845381 0.973981 0.227452
1.000000 0.979692 0.281237
0.101750 0.097250 0.282875
0.347562 0.097250 0.282875
0.593375 0.097250 0.282875
0.839187 0.097250 0.282875
1.000000 0.097250 0.282875
0.101750 0.321688 0.282875
0.347562 0.321688 0.282875
0.593375 0.321688 0.282875
0.839187 0.321688 0.282875
1.000000 0.321688 0.282875
0.101750 0.546125 0.282875
0.347562 0.546125 0.282875
0.593375 0.546125 0.282875
0.839187 0.546125 0.282875
1.000000 0.546125 0.282875
0.101750 0.770563 0.282875
0.347562 0.770563 0.282875
0.593375 0.770563 0.282875
0.837446 0.769775 0.288866
1.000000 0.770327 0.315339
0.122747 0.986297 0.297850
0.385478 0.976977 0.326380
0.627729 0.973307 0.360559
0.849499 0.975287 0.400388
1.000000 0.982916 0.445867
0.101750 0.097250 0.475250
0.347562 0.097250 0.475250
0.593375 0.097250 0.475250
0.839187 0.097250 0.475250
1.000000 0.097250 0.475250
0.101750 0.321688 0.475250
0.347562 0.321688 0.475250
0.593375 0.321688 0.475250
0.839187 0.321688 0.475250
1.000000 0.321688 0.475250
0.101750 0.546125 0.475250
0.347562 0.546125 0.475250
0.593375 0.546125 0.475250
0.839187 0.546125 0.475250
1.000000 0.546125 0.475250
0.101750 0.770563 0.475250
0.347562 0.770563 0.475250
0.593375 0.770563 0.475250
0.835761 0.769329 0.483452
1.000000 0.771800 0.501618
0.135072 0.982498 0.489411
0.395284 0.975097 0.509635
0.635017 0.973346 0.535508
0.854269 0.977244 0.567032
1.000000 0.986793 0.604205
0.101750 0.097250 0.667625
0.347562 0.097250 0.667625
0.593375 0.097250 0.667625
0.839187 0.097250 0.667625
1.000000 0.097250 0.667625
0.101750 0.321688 0.667625
0.347562 0.321688 0.667625
0.593375 0.321688 0.667625
0.839187 0.321688 0.667625
1.000000 0.321688 0.667625
0.101750 0.546125 0.667625
0.347562 0.546125 0.667625
0.593375 0.546125 0.667625
0.839187 0.546125 0.667625
1.000000 0.546125 0.667625
0.101750 0.770563 0.667625
0.347562 0.770563 0.667625
0.593375 0.770563 0.667625
0.834728 0.769534 0.671744
1.000000 0.773924 0.681604
0.148048 0.979351 0.674680
0.405742 0.973869 0.686597
0.642957 0.974036 0.704165
0.859691 0.979853 0.727382
1.000000 0.991321 0.756249
0.101750 0.097250 0.860000
0.347562 0.097250 0.860000
0.593375 0.097250 0.860000
0.839187 0.097250 0.860000
1.000000 0.097250 0.860000
0.101750 0.321688 0.860000
0.347562 0.321688 0.860000
0.593375 0.321688 0.860000
0.839187 0.321688 0.860000
1.000000 0.321688 0.860000
0.101750 0.546125 0.860000
0.347562 0.546125 0.860000
0.593375 0.546125 0.860000
0.839187 0.546125 0.860000
1.000000 0.546125 0.860000
0.101750 0.770563 0.860000
0.347562 0.770563 0.860000
0.595186 0.769733 0.857838
0.834347 0.770392 0.853743
1.000000 0.776700 0.855297
0.161676 0.976856 0.853655
0.416852 0.973292 0.857266
0.651548 0.975378 0.866528
0.865764 0.983114 0.881439
1.000000 0.996500 0.902000
