luts/warm_vintage.cube
# warm_vintage
# Warm vintage film look - golden nostalgic aesthetic
# Generated by VHS Upscaler LUT Generator
LUT_3D_SIZE 9
0.101750 0.097250 0.090500
0.224656 0.097250 0.090500
0.347562 0.097250 0.090500
0.470469 0.097250 0.090500
0.593375 0.097250 0.090500
0.716281 0.097250 0.090500
0.839187 0.097250 0.090500
0.962094 0.097250 0.090500
1.000000 0.097250 0.090500
0.101750 0.209469 0.090500
0.224656 0.209469 0.090500
0.347562 0.209469 0.090500
0.470469 0.209469 0.090500
0.593375 0.209469 0.090500
0.716281 0.209469 0.090500
0.839187 0.209469 0.090500
0.962094 0.209469 0.090500
1.000000 0.209469 0.090500
0.101750 0.321688 0.090500
0.224656 0.321688 0.090500
0.347562 0.321688 0.090500
0.470469 0.321688 0.090500
0.593375 0.321688 0.090500
0.716281 0.321688 0.090500
0.839187 0.321688 0.090500
0.962094 0.321688 0.090500
1.000000 0.321688 0.090500
0.101750 0.433906 0.090500
0.224656 0.433906 0.090500
0.347562 0.433906 0.090500
0.470469 0.433906 0.090500
0.593375 0.433906 0.090500
0.716281 0.433906 0.090500
0.839187 0.433906 0.090500
0.962094 0.433906 0.090500
1.000000 0.433906 0.090500
0.101750 0.546125 0.090500
0.224656 0.546125 0.090500
0.347562 0.546125 0.090500
0.470469 0.546125 0.090500
0.593375 0.546125 0.090500
0.716281 0.546125 0.090500
0.839187 0.546125 0.090500
0.962094 0.546125 0.090500
1.000000 0.546125 0.090500
0.101750 0.658344 0.090500
0.224656 0.658344 0.090500
0.347562 0.658344 0.090500
0.470469 0.658344 0.090500
0.593375 0.658344 0.090500
0.716281 0.658344 0.090500
0.839187 0.658344 0.090500
0.962094 0.658344 0.090500
1.000000 0.658344 0.090500
0.101750 0.770563 0.090500
0.224656 0.770563 0.090500
0.347562 0.770563 0.090500
0.470469 0.770563 0.090500
0.593375 0.770563 0.090500
0.716281 0.770563 0.090500
0.839187 0.770563 0.090500
0.956719 0.769483 0.104671
1.000000 0.769506 0.122767
0.101750 0.882781 0.090500
0.224656 0.882781 0.090500
0.347562 0.882781 0.090500
0.471767 0.881802 0.093898
0.597828 0.877944 0.111095
0.718769 0.875499 0.129705
0.834589 0.874467 0.149727
0.945290 0.874847 0.171162
1.000000 0.876639 0.194009
0.111074 0.990747 0.099995
0.246259 0.984422 0.117707
0.376323 0.979508 0.136831
0.501268 0.976008 0.157368
0.621092 0.973920 0.179316
0.735797 0.973244 0.202678
0.845381 0.973981 0.227452
0.949845 0.976130 0.253638
1.000000 0.979692 0.281237
0.101750 0.097250 0.186687
0.224656 0.097250 0.186687
0.347562 0.097250 0.186687
0.470469 0.097250 0.186687
0.593375 0.097250 0.186687
0.716281 0.097250 0.186687
0.839187 0.097250 0.186687
0.962094 0.097250 0.186687
1.000000 0.097250 0.186687
0.101750 0.209469 0.186687
0.224656 0.209469 0.186687
0.347562 0.209469 0.186687
0.470469 0.209469 0.186687
0.593375 0.209469 0.186687
0.716281 0.209469 0.186687
0.839187 0.209469 0.186687
0.962094 0.209469 0.186687
1.000000 0.209469 0.186687
0.101750 0.321688 0.186687
0.224656 0.321688 0.186687
0.347562 0.321688 0.186687
0.470469 0.321688 0.186687
0.593375 0.321688 0.186687
0.716281 0.321688 0.186687
0.839187 0.321688 0.186687
0.962094 0.321688 0.186687
1.000000 0.321688 0.186687
0.101750 0.433906 0.186687
0.224656 0.433906 0.186687
0.347562 0.433906 0.186687
0.470469 0.433906 0.186687
0.593375 0.433906 0.186687
0.716281 0.433906 0.186687
0.839187 0.433906 0.186687
0.962094 0.433906 0.186687
1.000000 0.433906 0.186687
0.101750 0.546125 0.186687
0.224656 0.546125 0.186687
0.347562 0.546125 0.186687
0.470469 0.546125 0.186687
0.593375 0.546125 0.186687
0.716281 0.546125 0.186687
0.839187 0.546125 0.186687
0.962094 0.546125 0.186687
1.000000 0.546125 0.186687
0.101750 0.658344 0.186687
0.224656 0.658344 0.186687
0.347562 0.658344 0.186687
0.470469 0.658344 0.186687
0.593375 0.658344 0.186687
0.716281 0.658344 0.186687
0.839187 0.658344 0.186687
0.962094 0.658344 0.186687
1.000000 0.658344 0.186687
0.101750 0.770563 0.186687
0.224656 0.770563 0.186687
0.347562 0.770563 0.186687
0.470469 0.770563 0.186687
0.593375 0.770563 0.186687
0.716281 0.770563 0.186687
0.838533 0.770242 0.189214
0.954840 0.769332 0.203820
1.000000 0.769835 0.219839
0.101750 0.882781 0.186687
0.224656 0.882781 0.186687
0.347562 0.882781 0.186687
0.474020 0.880333 0.194368
0.599451 0.876956 0.209489
0.719762 0.874990 0.226022
0.834953 0.874437 0.243968
0.945024 0.875297 0.263326
1.000000 0.877569 0.284097
0.116829 0.988440 0.199709
0.251384 0.982595 0.215344
0.380819 0.978161 0.232392
0.505134 0.975140 0.250852
0.624329 0.973532 0.270724
0.738404 0.973336 0.292009
0.847359 0.974552 0.314707
0.951194 0.977181 0.338817
1.000000 0.981223 0.364339
0.101750 0.097250 0.282875
0.224656 0.097250 0.282875
0.347562 0.097250 0.282875
0.470469 0.097250 0.282875
0.593375 0.097250 0.282875
0.716281 0.097250 0.282875
0.839187 0.097250 0.282875
0.962094 0.097250 0.282875
1.000000 0.097250 0.282875
0.101750 0.209469 0.282875
0.224656 0.209469 0.282875
0.347562 0.209469 0.282875
0.470469 0.209469 0.282875
0.593375 0.209469 0.282875
0.716281 0.209469 0.282875
0.839187 0.209469 0.282875
0.962094 0.209469 0.282875
1.000000 0.209469 0.282875
0.101750 0.321688 0.282875
0.224656 0.321688 0.282875
0.347562 0.321688 0.282875
0.470469 0.321688 0.282875
0.593375 0.321688 0.282875
0.716281 0.321688 0.282875
0.839187 0.321688 0.282875
0.962094 0.321688 0.282875
1.000000 0.321688 0.282875
0.101750 0.433906 0.282875
0.224656 0.433906 0.282875
0.347562 0.433906 0.282875
0.470469 0.433906 0.282875
0.593375 0.433906 0.282875
0.716281 0.433906 0.282875
0.839187 0.433906 0.282875
0.962094 0.433906 0.282875
1.000000 0.433906 0.282875
0.101750 0.546125 0.282875
0.224656 0.546125 0.282875
0.347562 0.546125 0.282875
0.470469 0.546125 0.282875
0.593375 0.546125 0.282875
0.716281 0.546125 0.282875
0.839187 0.546125 0.282875
0.962094 0.546125 0.282875
1.000000 0.546125 0.282875
0.101750 0.658344 0.282875
0.224656 0.658344 0.282875
0.347562 0.658344 0.282875
0.470469 0.658344 0.282875
0.593375 0.658344 0.282875
0.716281 0.658344 0.282875
0.839187 0.658344 0.282875
0.962094 0.658344 0.282875
1.000000 0.658344 0.282875
0.101750 0.770563 0.282875
0.224656 0.770563 0.282875
0.347562 0.770563 0.282875
0.470469 0.770563 0.282875
0.593375 0.770563 0.282875
0.716281 0.770563 0.282875
0.837446 0.769775 0.288866
0.953124 0.769345 0.301396
1.000000 0.770327 0.315339
0.101750 0.882781 0.282875
0.224656 0.882781 0.282875
0.347562 0.882781 0.282875
0.476436 0.879028 0.293265
0.601237 0.876130 0.306309
0.720919 0.874644 0.320766
0.835480 0.874571 0.336635
0.944922 0.875910 0.353917
1.000000 0.878662 0.372611
0.122747 0.986297 0.297850
0.256673 0.980931 0.311409
0.385478 0.976977 0.326380
0.509163 0.974436 0.342763
0.627729 0.973307 0.360559
0.741174 0.973591 0.379767
0.849499 0.975287 0.400388
0.952705 0.978395 0.422422
1.000000 0.982916 0.445867
0.101750 0.097250 0.379062
0.224656 0.097250 0.379062
0.347562 0.097250 0.379062
0.470469 0.097250 0.379062
0.593375 0.097250 0.379062
0.716281 0.097250 0.379062
0.839187 0.097250 0.379062
0.962094 0.097250 0.379062
1.000000 0.097250 0.379062
0.101750 0.209469 0.379062
0.224656 0.209469 0.379062
0.347562 0.209469 0.379062
0.470469 0.209469 0.379062
0.593375 0.209469 0.379062
0.716281 0.209469 0.379062
0.839187 0.209469 0.379062
0.962094 0.209469 0.379062
1.000000 0.209469 0.379062
0.101750 0.321688 0.379062
0.224656 0.321688 0.379062
0.347562 0.321688 0.379062
0.470469 0.321688 0.379062
0.593375 0.321688 0.379062
0.716281 0.321688 0.379062
0.839187 0.321688 0.379062
0.962094 0.321688 0.379062
1.000000 0.321688 0.379062
0.101750 0.433906 0.379062
0.224656 0.433906 0.379062
0.347562 0.433906 0.379062
0.470469 0.433906 0.379062
0.593375 0.433906 0.379062
0.716281 0.433906 0.379062
0.839187 0.433906 0.379062
0.962094 0.433906 0.379062
1.000000 0.433906 0.379062
0.101750 0.546125 0.379062
0.224656 0.546125 0.379062
0.347562 0.546125 0.379062
0.470469 0.546125 0.379062
0.593375 0.546125 0.379062
0.716281 0.546125 0.379062
0.839187 0.546125 0.379062
0.962094 0.546125 0.379062
1.000000 0.546125 0.379062
0.101750 0.658344 0.379062
0.224656 0.658344 0.379062
0.347562 0.658344 0.379062
0.470469 0.658344 0.379062
0.593375 0.658344 0.379062
0.716281 0.658344 0.379062
0.839187 0.658344 0.379062
0.962094 0.658344 0.379062
1.000000 0.658344 0.379062
0.101750 0.770563 0.379062
0.224656 0.770563 0.379062
0.347562 0.770563 0.379062
0.470469 0.770563 0.379062
0.593375 0.770563 0.379062
0.716281 0.770563 0.379062
0.836522 0.769470 0.386946
0.951570 0.769520 0.397399
1.000000 0.770982 0.409265
0.101750 0.882781 0.379062
0.224656 0.882781 0.379062
0.349722 0.881716 0.381032
0.479014 0.877885 0.390588
0.603186 0.875467 0.401556
0.722238 0.874461 0.413936
0.836170 0.874867 0.427729
0.944982 0.876686 0.442934
1.000000 0.879917 0.459552
0.128828 0.984316 0.394417
0.262124 0.979430 0.405899
0.390300 0.975956 0.418794
0.513356 0.973894 0.433101
0.631291 0.973245 0.448820
0.744107 0.974008 0.465952
0.851803 0.976184 0.484497
0.954379 0.979772 0.504453
1.000000 0.984773 0.525823
0.101750 0.097250 0.475250
0.224656 0.097250 0.475250
0.347562 0.097250 0.475250
0.470469 0.097250 0.475250
0.593375 0.097250 0.475250
0.716281 0.097250 0.475250
0.839187 0.097250 0.475250
0.962094 0.097250 0.475250
1.000000 0.097250 0.475250
0.101750 0.209469 0.475250
0.224656 0.209469 0.475250
0.347562 0.209469 0.475250
0.470469 0.209469 0.475250
0.593375 0.209469 0.475250
0.716281 0.209469 0.475250
0.839187 0.209469 0.475250
0.962094 0.209469 0.475250
1.000000 0.209469 0.475250
0.101750 0.321688 0.475250
0.224656 0.321688 0.475250
0.347562 0.321688 0.475250
0.470469 0.321688 0.475250
0.593375 0.321688 0.475250
0.716281 0.321688 0.475250
0.839187 0.321688 0.475250
0.962094 0.321688 0.475250
1.000000 0.321688 0.475250
0.101750 0.433906 0.475250
0.224656 0.433906 0.475250
0.347562 0.433906 0.475250
0.470469 0.433906 0.475250
0.593375 0.433906 0.475250
0.716281 0.433906 0.475250
0.839187 0.433906 0.475250
0.962094 0.433906 0.475250
1.000000 0.433906 0.475250
0.101750 0.546125 0.475250
0.224656 0.546125 0.475250
0.347562 0.546125 0.475250
0.470469 0.546125 0.475250
0.593375 0.546125 0.475250
0.716281 0.546125 0.475250
0.839187 0.546125 0.475250
0.962094 0.546125 0.475250
1.000000 0.546125 0.475250
0.101750 0.658344 0.475250
0.224656 0.658344 0.475250
0.347562 0.658344 0.475250
0.470469 0.658344 0.475250
0.593375 0.658344 0.475250
0.716281 0.658344 0.475250
0.839187 0.658344 0.475250
0.962094 0.658344 0.475250
1.000000 0.658344 0.475250
0.101750 0.770563 0.475250
0.224656 0.770563 0.475250
0.347562 0.770563 0.475250
0.470469 0.770563 0.475250
0.593375 0.770563 0.475250
0.716223 0.770212 0.476487
0.835761 0.769329 0.483452
0.950180 0.769858 0.491829
1.000000 0.771800 0.501618
0.101750 0.882781 0.475250
0.224656 0.882781 0.475250
0.353093 0.880257 0.478859
0.481756 0.876906 0.486338
0.605298 0.874967 0.495229
0.723720 0.874440 0.505533
0.837023 0.875327 0.517249
0.945205 0.877625 0.530378
1.000000 0.881336 0.544919
0.135072 0.982498 0.489411
0.267738 0.978091 0.498817
0.395284 0.975097 0.509635
0.517711 0.973515 0.521865
0.635017 0.973346 0.535508
0.747203 0.974589 0.550564
0.854269 0.977244 0.567032
0.956216 0.981312 0.584912
1.000000 0.986793 0.604205
0.101750 0.097250 0.571438
0.224656 0.097250 0.571438
0.347562 0.097250 0.571438
0.470469 0.097250 0.571438
0.593375 0.097250 0.571438
0.716281 0.097250 0.571438
0.839187 0.097250 0.571438
0.962094 0.097250 0.571438
1.000000 0.097250 0.571438
0.101750 0.209469 0.571438
0.224656 0.209469 0.571438
0.347562 0.209469 0.571438
0.470469 0.209469 0.571438
0.593375 0.209469 0.571438
0.716281 0.209469 0.571438
0.839187 0.209469 0.571438
0.962094 0.209469 0.571438
1.000000 0.209469 0.571438
0.101750 0.321688 0.571438
0.224656 0.321688 0.571438
0.347562 0.321688 0.571438
0.470469 0.321688 0.571438
0.593375 0.321688 0.571438
0.716281 0.321688 0.571438
0.839187 0.321688 0.571438
0.962094 0.321688 0.571438
1.000000 0.321688 0.571438
0.101750 0.433906 0.571438
0.224656 0.433906 0.571438
0.347562 0.433906 0.571438
0.470469 0.433906 0.571438
0.593375 0.433906 0.571438
0.716281 0.433906 0.571438
0.839187 0.433906 0.571438
0.962094 0.433906 0.571438
1.000000 0.433906 0.571438
0.101750 0.546125 0.571438
0.224656 0.546125 0.571438
0.347562 0.546125 0.571438
0.470469 0.546125 0.571438
0.593375 0.546125 0.571438
0.716281 0.546125 0.571438
0.839187 0.546125 0.571438
0.962094 0.546125 0.571438
1.000000 0.546125 0.571438
0.101750 0.658344 0.571438
0.224656 0.658344 0.571438
0.347562 0.658344 0.571438
0.470469 0.658344 0.571438
0.593375 0.658344 0.571438
0.716281 0.658344 0.571438
0.839187 0.658344 0.571438
0.962094 0.658344 0.571438
1.000000 0.658563 0.572067
0.101750 0.770563 0.571438
0.224656 0.770563 0.571438
0.347562 0.770563 0.571438
0.470469 0.770563 0.571438
0.593375 0.770563 0.571438
0.716254 0.769754 0.573496
0.835163 0.769350 0.578384
0.948952 0.770359 0.584685
1.000000 0.772780 0.592398
0.101750 0.882781 0.571438
0.224656 0.882781 0.571438
0.356627 0.878960 0.575112
0.484660 0.876089 0.580515
0.607573 0.874630 0.587329
0.725366 0.874583 0.595557
0.838039 0.875949 0.605196
0.945591 0.878727 0.616249
1.000000 0.882918 0.628713
0.141479 0.980843 0.582832
0.273515 0.976916 0.590161
0.400432 0.974401 0.598903
0.522229 0.973299 0.609057
0.638905 0.973610 0.620623
0.750462 0.975332 0.633602
0.856899 0.978467 0.647993
0.958215 0.983015 0.663797
1.000000 0.988975 0.681013
0.101750 0.097250 0.667625
0.224656 0.097250 0.667625
0.347562 0.097250 0.667625
0.470469 0.097250 0.667625
0.593375 0.097250 0.667625
0.716281 0.097250 0.667625
0.839187 0.097250 0.667625
0.962094 0.097250 0.667625
1.000000 0.097250 0.667625
0.101750 0.209469 0.667625
0.224656 0.209469 0.667625
0.347562 0.209469 0.667625
0.470469 0.209469 0.667625
0.593375 0.209469 0.667625
0.716281 0.209469 0.667625
0.839187 0.209469 0.667625
0.962094 0.209469 0.667625
1.000000 0.209469 0.667625
0.101750 0.321688 0.667625
0.224656 0.321688 0.667625
0.347562 0.321688 0.667625
0.470469 0.321688 0.667625
0.593375 0.321688 0.667625
0.716281 0.321688 0.667625
0.839187 0.321688 0.667625
0.962094 0.321688 0.667625
1.000000 0.321688 0.667625
0.101750 0.433906 0.667625
0.224656 0.433906 0.667625
0.347562 0.433906 0.667625
0.470469 0.433906 0.667625
0.593375 0.433906 0.667625
0.716281 0.433906 0.667625
0.839187 0.433906 0.667625
0.962094 0.433906 0.667625
1.000000 0.433906 0.667625
0.101750 0.546125 0.667625
0.224656 0.546125 0.667625
0.347562 0.546125 0.667625
0.470469 0.546125 0.667625
0.593375 0.546125 0.667625
0.716281 0.546125 0.667625
0.839187 0.546125 0.667625
0.962094 0.546125 0.667625
1.000000 0.546125 0.667625
0.101750 0.658344 0.667625
0.224656 0.658344 0.667625
0.347562 0.658344 0.667625
0.470469 0.658344 0.667625
0.593375 0.658344 0.667625
0.716281 0.658344 0.667625
0.839187 0.658344 0.667625
0.962094 0.658344 0.667625
1.000000 0.659106 0.668259
0.101750 0.770563 0.667625
0.224656 0.770563 0.667625
0.347562 0.770563 0.667625
0.470469 0.770563 0.667625
0.593375 0.770563 0.667625
0.716449 0.769458 0.668932
0.834728 0.769534 0.671744
0.947888 0.771023 0.675968
1.000000 0.773924 0.681604
0.101750 0.882781 0.667625
0.227800 0.881631 0.667879
0.360324 0.877827 0.669792
0.487727 0.875435 0.673118
0.610010 0.874455 0.677856
0.727174 0.874888 0.684007
0.839217 0.876734 0.691570
0.946140 0.879992 0.700546
1.000000 0.884662 0.710934
0.148048 0.979351 0.674680
0.279455 0.975904 0.679932
0.405742 0.973869 0.686597
0.526909 0.973246 0.694675
0.642957 0.974036 0.704165
0.753884 0.976239 0.715067
0.859691 0.979853 0.727382
0.960378 0.984881 0.741109
1.000000 0.991321 0.756249
0.101750 0.097250 0.763813
0.224656 0.097250 0.763813
0.347562 0.097250 0.763813
0.470469 0.097250 0.763813
0.593375 0.097250 0.763813
0.716281 0.097250 0.763813
0.839187 0.097250 0.763813
0.962094 0.097250 0.763813
1.000000 0.097250 0.763813
0.101750 0.209469 0.763813
0.224656 0.209469 0.763813
0.347562 0.209469 0.763813
0.470469 0.209469 0.763813
0.593375 0.209469 0.763813
0.716281 0.209469 0.763813
0.839187 0.209469 0.763813
0.962094 0.209469 0.763813
1.000000 0.209469 0.763813
0.101750 0.321688 0.763813
0.224656 0.321688 0.763813
0.347562 0.321688 0.763813
0.470469 0.321688 0.763813
0.593375 0.321688 0.763813
0.716281 0.321688 0.763813
0.839187 0.321688 0.763813
0.962094 0.321688 0.763813
1.000000 0.321688 0.763813
0.101750 0.433906 0.763813
0.224656 0.433906 0.763813
0.347562 0.433906 0.763813
0.470469 0.433906 0.763813
0.593375 0.433906 0.763813
0.716281 0.433906 0.763813
0.839187 0.433906 0.763813
0.962094 0.433906 0.763813
1.000000 0.433906 0.763813
0.101750 0.546125 0.763813
0.224656 0.546125 0.763813
0.347562 0.546125 0.763813
0.470469 0.546125 0.763813
0.593375 0.546125 0.763813
0.716281 0.546125 0.763813
0.839187 0.546125 0.763813
0.962094 0.546125 0.763813
1.000000 0.546125 0.763813
0.101750 0.658344 0.763813
0.224656 0.658344 0.763813
0.347562 0.658344 0.763813
0.470469 0.658344 0.763813
0.593375 0.658344 0.763813
0.716281 0.658344 0.763813
0.839187 0.658344 0.763813
0.962094 0.658344 0.763813
1.000000 0.659811 0.762878
0.101750 0.770563 0.763813
0.224656 0.770563 0.763813
0.347562 0.770563 0.763813
0.470469 0.770563 0.763813
0.594036 0.770182 0.763472
0.716806 0.769326 0.762795
0.834456 0.769881 0.763530
0.946986 0.771850 0.765678
1.000000 0.775230 0.769238
0.101750 0.882781 0.763813
0.232290 0.880181 0.763062
0.364183 0.876856 0.762899
0.490957 0.874944 0.764148
0.612611 0.874444 0.766810
0.729145 0.875357 0.770884
0.840559 0.877682 0.776371
0.946852 0.881420 0.783270
1.000000 0.886570 0.791582
0.154780 0.978022 0.764954
0.285558 0.975054 0.768130
0.411216 0.973499 0.772718
0.531753 0.973356 0.778719
0.647171 0.974626 0.786133
0.757468 0.977308 0.794959
0.862646 0.981402 0.805197
0.962704 0.986909 0.816848
1.000000 0.993829 0.829911
0.101750 0.097250 0.860000
0.224656 0.097250 0.860000
0.347562 0.097250 0.860000
0.470469 0.097250 0.860000
0.593375 0.097250 0.860000
0.716281 0.097250 0.860000
0.839187 0.097250 0.860000
0.962094 0.097250 0.860000
1.000000 0.097250 0.860000
0.101750 0.209469 0.860000
0.224656 0.209469 0.860000
0.347562 0.209469 0.860000
0.470469 0.209469 0.860000
0.593375 0.209469 0.860000
0.716281 0.209469 0.860000
0.839187 0.209469 0.860000
0.962094 0.209469 0.860000
1.000000 0.209469 0.860000
0.101750 0.321688 0.860000
0.224656 0.321688 0.860000
0.347562 0.321688 0.860000
0.470469 0.321688 0.860000
0.593375 0.321688 0.860000
0.716281 0.321688 0.860000
0.839187 0.321688 0.860000
0.962094 0.321688 0.860000
1.000000 0.321688 0.860000
0.101750 0.433906 0.860000
0.224656 0.433906 0.860000
0.347562 0.433906 0.860000
0.470469 0.433906 0.860000
0.593375 0.433906 0.860000
0.716281 0.433906 0.860000
0.839187 0.433906 0.860000
0.962094 0.433906 0.860000
1.000000 0.433906 0.860000
0.101750 0.546125 0.860000
0.224656 0.546125 0.860000
0.347562 0.546125 0.860000
0.470469 0.546125 0.860000
0.593375 0.546125 0.860000
0.716281 0.546125 0.860000
0.839187 0.546125 0.860000
0.962094 0.546125 0.860000
1.000000 0.546125 0.860000
0.101750 0.658344 0.860000
0.224656 0.658344 0.860000
0.347562 0.658344 0.860000
0.470469 0.658344 0.860000
0.593375 0.658344 0.860000
0.716281 0.658344 0.860000
0.839187 0.658344 0.860000
0.960752 0.658589 0.859191
1.000000 0.660680 0.855923
0.101750 0.770563 0.860000
0.224656 0.770563 0.860000
0.347562 0.770563 0.860000
0.470469 0.770563 0.860000
0.595186 0.769733 0.857838
0.717326 0.769356 0.855084
0.834347 0.770392 0.853743
0.946247 0.772839 0.853814
1.000000 0.776700 0.855297
0.101750 0.882781 0.860000
0.236942 0.878893 0.856672
0.368206 0.876048 0.854432
0.494350 0.874616 0.853605
0.615374 0.874596 0.854190
0.731279 0.875988 0.856188
0.842063 0.878793 0.859599
0.947727 0.883010 0.864421
1.000000 0.888640 0.870656
0.161676 0.976856 0.853655
0.291824 0.974368 0.854754
0.416852 0.973292 0.857266
0.536760 0.973629 0.861191
0.651548 0.975378 0.866528
0.761216 0.978540 0.873277
0.865764 0.983114 0.881439
0.965192 0.989101 0.891013
1.000000 0.996500 0.902000
